!!!!SEGMENT: pl-stab--5a--001-006_dankowski-adalbert--vespere-ex-c-de-confessoribus-laudate-dominum.krn
!!!cenid: 18xx:3504
!!!COM: Dankowski, Adalbert
!!!COM-rismID: pe30000793
!!!CDT: ~1760-~1836
!!!CNT: Polish
!!!OPR: Vespere ex C de Confessoribus
!!!OTL: Laudate Dominum
!!!OMV: 006
!!!PDT:
!!!AGN: Sacred; Vespers
!!!YEC: Copyright 2022 Narodowy Instytut Fryderyka Chopina (https://polishscores.org)
!!!YEM: License CC-BY-4.0 (https://creativecommons.org/licenses/by/4.0)
!!!SMS-siglum: PL-STAb
!!!SMS-shelfmark: 5a
!!!SMS-shelfwork: 001-006 M
!!!SMS-variant:
!!!SMS-altvar:
!!!NIFC-rismSourceID: 301050557
!!!NIFC-rismChildID: 301050557
!!!NIFC-islandoraID: pl-stab:1317
!!!URL-pdf-islandora: https://repozytorium.nifc.pl/islandora/object/pl-stab%3A1317/datastream/PDF/view
!!!URL-scan: https://polish.musicsources.pl/pl/lokalizacje/galeria/rekopisy/4531 @EN{Scan on Polish Music Sources Website} @PL{Skany w portalu Dziedzictwo Muzyki Polskiej w otwartym dostępie}
!!!IIIF:
!!!ONB-nifc: UWAGA: części Nieszporów: 1. Domine ad adjuvandum, 2. Dixit Dominus, 3. Confitebor, 4. Beatus vir, 5. Laudate pueri, 6. Laudate Dominum, 7. In Exitu, 8. Magnificat, 9. Quia fecit, 10. Fecit potentiam, 11. Suscepit Israel, 12. Gloria patri
!!!AIN: 1 alto 1 bass 2 cor 1 organ 1 soprn 1 tenor 2 violn
!!!OMD:
!!!OMD-mod: Allegro
!!!key: E
**kern	**fba	**dynam	**kern	**dynam	**kern	**dynam	**kern	**text	**dynam	**kern	**text	**dynam	**kern	**text	**dynam	**kern	**text	**dynam	**kern	**dynam	**kern	**dynam
*	*	*	*group3	*	*group3	*	*group2	*	*	*group2	*	*	*group2	*	*	*group2	*	*	*group1	*	*group1	*
*part9	*	*	*part8	*	*part7	*	*part6	*	*	*part5	*	*	*part4	*	*	*part3	*	*	*part2	*	*part1	*
*staff9	*	*	*staff8	*	*staff7	*	*staff6	*	*	*staff5	*	*	*staff4	*	*	*staff3	*	*	*staff2	*	*staff1	*
*I"Organo	*	*	*I"Violino Secondo	*	*I"Violino Primo	*	*I"Baſso	*	*	*I"Tenore.	*	*	*I"Alto.	*	*	*I"Canto	*	*	*I"Cornu Secondo Ex E.	*	*I"Cornu Primo Ex E.	*
*	*	*	*mI"Violino II	*	*mI"Violino I	*	*mI"Basso	*	*	*mI"Tenore	*	*	*mI"Alto	*	*	*mI"Soprano	*	*	*mI"Corno II in E	*	*mI"Corno I in E	*
*I'org	*	*	*I'vl 2	*	*I'vl 1	*	*I'B	*	*	*I'T	*	*	*I'A	*	*	*I'S	*	*	*I'cor 2 in E	*	*I'cor 1 in E	*
*Iorgan	*	*	*Ivioln	*	*Ivioln	*	*Ibass	*	*	*Itenor	*	*	*Ialto	*	*	*Isoprn	*	*	*Icor	*	*Icor	*
*ICklav	*	*	*ICstr	*	*ICstr	*	*ICvox	*	*	*ICvox	*	*	*ICvox	*	*	*ICvox	*	*	*ICbras	*	*ICbras	*
*IGcont	*	*	*	*	*	*	*	*	*	*	*	*	*	*	*	*	*	*	*	*	*	*
*clefF4	*	*	*clefG2	*	*clefG2	*	*clefF4	*	*	*clefC4	*	*	*clefC3	*	*	*clefC1	*	*	*clefG2	*	*clefG2	*
*	*	*	*	*	*	*	*	*	*	*mclefGv2	*	*	*mclefG2	*	*	*mclefG2	*	*	*	*	*	*
*	*	*	*	*	*	*	*	*	*	*	*	*	*	*	*	*	*	*	*ITrd-2c-4	*	*ITrd-2c-4	*
*k[f#c#g#d#]	*	*	*k[f#c#g#d#]	*	*k[f#c#g#d#]	*	*k[f#c#g#d#]	*	*	*k[f#c#g#d#]	*	*	*k[f#c#g#d#]	*	*	*k[f#c#g#d#]	*	*	*k[f#c#g#d#]	*	*k[f#c#g#d#]	*
*E:	*	*	*E:	*	*E:	*	*E:	*	*	*E:	*	*	*E:	*	*	*E:	*	*	*E:	*	*E:	*
*M4/4	*	*	*M4/4	*	*M4/4	*	*M4/4	*	*	*M4/4	*	*	*M4/4	*	*	*M4/4	*	*	*M4/4	*	*M4/4	*
*met(c)	*	*	*met(c)	*	*met(c)	*	*met(c)	*	*	*met(c)	*	*	*met(c)	*	*	*met(c)	*	*	*met(c)	*	*met(c)	*
*mmet(c)	*	*	*mmet(c)	*	*mmet(c)	*	*mmet(c)	*	*	*mmet(c)	*	*	*mmet(c)	*	*	*mmet(c)	*	*	*mmet(c)	*	*mmet(c)	*
=1	=1	=1	=1	=1	=1	=1	=1	=1	=1	=1	=1	=1	=1	=1	=1	=1	=1	=1	=1	=1	=1	=1
!	!	!	!	!	!	!	!	!	!	!	!	!	!LO:TX:a:i:t=8:mod=	!	!	!LO:TX:a:i:t=Solo.:mod=Solo	!	!	!	!	!	!
!	!	!	!	!	!	!	!	!	!	!LO:TX:a:i:t=allegro.:mod=	!	!	!LO:TX:a:i:t=allegro.:mod=	!	!	!LO:TX:a:i:t=Allegro:mod=	!	!	!LO:TX:a:i:t=Ex E.\n Allegro:mod=	!	!LO:TX:a:i:t=allegro Ex E.:mod=	!
!	!	!	!	!	!	!	!	!	!	!	!	!	!	!	!	!LO:TX:t=P:znaki:f#cc#g#dd#:problem	!	!	!	!	!	!
!	!	!	!	!	!	!	!	!	!	!LO:TX:t=P:d#B#A#E#:problem=błędne znaki	!	!	!LO:TX:t=P:znaki:f#c#d#g#:problem	!	!	!	!	!	!	!	!	!
!LO:TX:a:i:t=Allegro:mod=	!	!LO:DY:a:t=piano:mod=%s	!LO:TX:a:i:t=Allegro&colon;:mod=	!LO:DY:a:t=pia:mod=%s	!LO:TX:a:i:t=Allegro:mod=	!LO:DY:a:t=piano:mod=%s	!LO:TX:a:i:t=allegro.:mod=	!	!	!	!	!	!	!	!	!	!	!	!LO:TX:a:i:t=8:mod=	!	!	!
4E\	.	p	8g#/L	p	4.b/	p	1r	.	.	1r	.	.	1r	.	.	4.b\	Lau-	.	1r	.	1r	.
.	.	.	8e/	.	.	.	.	.	.	.	.	.	.	.	.	.	.	.	.	.	.	.
4r	.	.	8g#/	.	.	.	.	.	.	.	.	.	.	.	.	.	.	.	.	.	.	.
.	.	.	8b/J	.	8g#/	.	.	.	.	.	.	.	.	.	.	8g#\	.	.	.	.	.	.
4E\	.	.	8g#/L	.	4ee\	.	.	.	.	.	.	.	.	.	.	4ee\	-da-	.	.	.	.	.
.	.	.	8e/	.	.	.	.	.	.	.	.	.	.	.	.	.	.	.	.	.	.	.
4r	.	.	8g#/	.	4ddn\	.	.	.	.	.	.	.	.	.	.	4ddn\	-te	.	.	.	.	.
.	.	.	8b/J	.	.	.	.	.	.	.	.	.	.	.	.	.	.	.	.	.	.	.
=2	=2	=2	=2	=2	=2	=2	=2	=2	=2	=2	=2	=2	=2	=2	=2	=2	=2	=2	=2	=2	=2	=2
4E\	6 4	.	8a/L	.	4.cc#\	.	1r	.	.	1r	.	.	1r	.	.	4.cc#\	Do-	.	1r	.	1r	.
.	.	.	8e/	.	.	.	.	.	.	.	.	.	.	.	.	.	.	.	.	.	.	.
4r	.	.	8a/	.	.	.	.	.	.	.	.	.	.	.	.	.	.	.	.	.	.	.
.	.	.	8cc#/J	.	16dd#X\LL	.	.	.	.	.	.	.	.	.	.	16dd#X\LL	-mi-	.	.	.	.	.
.	.	.	.	.	16ee\JJ	.	.	.	.	.	.	.	.	.	.	16ee\JJ	.	.	.	.	.	.
4E\	5 3	.	8g#/L	.	4b\	.	.	.	.	.	.	.	.	.	.	4b\	-num	.	.	.	.	.
.	.	.	8e/	.	.	.	.	.	.	.	.	.	.	.	.	.	.	.	.	.	.	.
4EE/	.	.	8g#/	.	4r	.	.	.	.	.	.	.	.	.	.	4r	.	.	.	.	.	.
.	.	.	8b/J	.	.	.	.	.	.	.	.	.	.	.	.	.	.	.	.	.	.	.
=3	=3	=3	=3	=3	=3	=3	=3	=3	=3	=3	=3	=3	=3	=3	=3	=3	=3	=3	=3	=3	=3	=3
!	!	!	!	!	!	!	!	!	!	!	!	!	!	!	!	!	!LO:MO:mod=lau-	!	!	!	!	!
4E\	.	.	8g#/L	.	4.b\	.	1r	.	.	1r	.	.	1r	.	.	4.b\	Lau-	.	1r	.	1r	.
.	.	.	8e/	.	.	.	.	.	.	.	.	.	.	.	.	.	.	.	.	.	.	.
4r	.	.	8g#/	.	.	.	.	.	.	.	.	.	.	.	.	.	.	.	.	.	.	.
.	.	.	8b/J	.	8g#/	.	.	.	.	.	.	.	.	.	.	8g#\	.	.	.	.	.	.
*	*	*	*rep	*	*	*	*	*	*	*	*	*	*	*	*	*	*	*	*	*	*	*
4E\	.	.	8g#/L	.	4ee\	.	.	.	.	.	.	.	.	.	.	4ee\	-da-	.	.	.	.	.
.	.	.	8e/	.	.	.	.	.	.	.	.	.	.	.	.	.	.	.	.	.	.	.
4r	.	.	8g#/	.	4ddn\	.	.	.	.	.	.	.	.	.	.	4ddn\	-te	.	.	.	.	.
.	.	.	8b/J	.	.	.	.	.	.	.	.	.	.	.	.	.	.	.	.	.	.	.
*	*	*	*Xrep	*	*	*	*	*	*	*	*	*	*	*	*	*	*	*	*	*	*	*
=4	=4	=4	=4	=4	=4	=4	=4	=4	=4	=4	=4	=4	=4	=4	=4	=4	=4	=4	=4	=4	=4	=4
4E\	6 4	.	8a/L	.	4.cc#\	.	1r	.	.	1r	.	.	1r	.	.	4.cc#\	Do-	.	1r	.	1r	.
.	.	.	8e/	.	.	.	.	.	.	.	.	.	.	.	.	.	.	.	.	.	.	.
4r	.	.	8a/	.	.	.	.	.	.	.	.	.	.	.	.	.	.	.	.	.	.	.
.	.	.	8cc#/J	.	16dd#X\LL	.	.	.	.	.	.	.	.	.	.	16dd#X\LL	-mi-	.	.	.	.	.
.	.	.	.	.	16ee\JJ	.	.	.	.	.	.	.	.	.	.	16ee\JJ	.	.	.	.	.	.
4E\	5 3	.	8g#/L	.	4b\	.	.	.	.	.	.	.	.	.	.	4b\	-num	.	.	.	.	.
.	.	.	8e/	.	.	.	.	.	.	.	.	.	.	.	.	.	.	.	.	.	.	.
4EE/	.	.	8g#/	.	4r	.	.	.	.	.	.	.	.	.	.	4r	.	.	.	.	.	.
.	.	.	8b/J	.	.	.	.	.	.	.	.	.	.	.	.	.	.	.	.	.	.	.
=5	=5	=5	=5	=5	=5	=5	=5	=5	=5	=5	=5	=5	=5	=5	=5	=5	=5	=5	=5	=5	=5	=5
!	!	!	!	!	!	!	!	!	!	!	!	!	!	!	!	!LO:LB:g=original	!	!	!	!	!	!
!	!	!	!	!	!LO:LB:g=original	!	!	!	!	!	!	!	!	!	!	!	!	!	!	!	!	!
4E\	.	.	8g#/L	.	4.ee\	.	1r	.	.	1r	.	.	1r	.	.	4.ee\	lau-	.	1r	.	1r	.
.	.	.	8e/	.	.	.	.	.	.	.	.	.	.	.	.	.	.	.	.	.	.	.
4r	.	.	8g#/	.	.	.	.	.	.	.	.	.	.	.	.	.	.	.	.	.	.	.
.	.	.	8b/J	.	8ff#\	.	.	.	.	.	.	.	.	.	.	8ff#\	.	.	.	.	.	.
*	*	*	*rep	*	*	*	*	*	*	*	*	*	*	*	*	*	*	*	*	*	*	*
4E\	.	.	8g#/L	.	4ee\	.	.	.	.	.	.	.	.	.	.	4ee\	-da-	.	.	.	.	.
.	.	.	8e/	.	.	.	.	.	.	.	.	.	.	.	.	.	.	.	.	.	.	.
4r	.	.	8g#/	.	4ddn\	.	.	.	.	.	.	.	.	.	.	4ddn\	-te	.	.	.	.	.
.	.	.	8b/J	.	.	.	.	.	.	.	.	.	.	.	.	.	.	.	.	.	.	.
*	*	*	*Xrep	*	*	*	*	*	*	*	*	*	*	*	*	*	*	*	*	*	*	*
=6	=6	=6	=6	=6	=6	=6	=6	=6	=6	=6	=6	=6	=6	=6	=6	=6	=6	=6	=6	=6	=6	=6
4A\	.	.	8a/L	.	4cc#\	.	1r	.	.	1r	.	.	1r	.	.	4cc#\	Do-	.	1r	.	1r	.
.	.	.	8e/	.	.	.	.	.	.	.	.	.	.	.	.	.	.	.	.	.	.	.
4r	.	.	8c#/	.	8cc#\L	.	.	.	.	.	.	.	.	.	.	8cc#\L	-mi-	.	.	.	.	.
.	.	.	8e/J	.	8b\J	.	.	.	.	.	.	.	.	.	.	8b\J	.	.	.	.	.	.
!	!	!	!LO:LB:g=original	!	!	!	!	!	!	!	!	!	!	!	!	!	!	!	!	!	!	!
4A\	.	.	8a/L	.	4cc#\	.	.	.	.	.	.	.	.	.	.	4.cc#\	-num	.	.	.	.	.
.	.	.	8e/	.	.	.	.	.	.	.	.	.	.	.	.	.	.	.	.	.	.	.
4r	.	.	8a/	.	8dd#X\L	.	.	.	.	.	.	.	.	.	.	.	.	.	.	.	.	.
.	.	.	8cc#/J	.	8ee\J	.	.	.	.	.	.	.	.	.	.	16dd#X\LL	.	.	.	.	.	.
.	.	.	.	.	.	.	.	.	.	.	.	.	.	.	.	16ee\JJ	.	.	.	.	.	.
=7	=7	=7	=7	=7	=7	=7	=7	=7	=7	=7	=7	=7	=7	=7	=7	=7	=7	=7	=7	=7	=7	=7
!LO:MO:mod=*null:null	!	!	!	!	!	!	!	!	!	!	!	!	!	!	!	!	!	!	!	!	!	!
*2\right	*	*	*	*	*	*	*	*	*	*	*	*	*	*	*	*	*	*	*	*	*	*
2.A\	6	.	8a/L	.	4.ff#\	.	1r	.	.	1r	.	.	1r	.	.	4.ff#\	.	.	1r	.	1r	.
.	.	.	8cc#/	.	.	.	.	.	.	.	.	.	.	.	.	.	.	.	.	.	.	.
.	.	.	8a/	.	.	.	.	.	.	.	.	.	.	.	.	.	.	.	.	.	.	.
.	.	.	8cc#/J	.	8gg#\	.	.	.	.	.	.	.	.	.	.	8gg#\	.	.	.	.	.	.
.	.	.	8a/L	.	4ff#\	.	.	.	.	.	.	.	.	.	.	4ff#\	om-	.	.	.	.	.
.	.	.	8cc#/	.	.	.	.	.	.	.	.	.	.	.	.	.	.	.	.	.	.	.
4A#X\	5	.	8a#X/	.	4ee\	.	.	.	.	.	.	.	.	.	.	4ee\	-nes	.	.	.	.	.
.	.	.	8cc#/J	.	.	.	.	.	.	.	.	.	.	.	.	.	.	.	.	.	.	.
=8	=8	=8	=8	=8	=8	=8	=8	=8	=8	=8	=8	=8	=8	=8	=8	=8	=8	=8	=8	=8	=8	=8
!LO:LB:g=original	!	!	!	!	!	!	!	!	!	!	!	!	!	!	!	!	!	!	!	!	!	!
4B\	4	.	4.g#/	.	4.ee\	.	1r	.	.	1r	.	.	1r	.	.	2ee\	gen-	.	1r	.	1r	.
4BB/	.	.	.	.	.	.	.	.	.	.	.	.	.	.	.	.	.	.	.	.	.	.
.	.	.	16f#/LL	.	16ff#\LL	.	.	.	.	.	.	.	.	.	.	.	.	.	.	.	.	.
.	.	.	16g#/JJ	.	16ee\JJ	.	.	.	.	.	.	.	.	.	.	.	.	.	.	.	.	.
!	!	!	!	!	!	!	!	!	!	!	!	!	!	!	!	!	!LO:MO:mod=-tes.	!	!	!	!	!
8B\L	#	.	4f#/	.	4dd#\	.	.	.	.	.	.	.	.	.	.	4dd#\	-tes	.	.	.	.	.
8An\	.	.	.	.	.	.	.	.	.	.	.	.	.	.	.	.	.	.	.	.	.	.
8G#\	.	.	4r	.	4r	.	.	.	.	.	.	.	.	.	.	4r	.	.	.	.	.	.
8F#\J	.	.	.	.	.	.	.	.	.	.	.	.	.	.	.	.	.	.	.	.	.	.
=9	=9	=9	=9	=9	=9	=9	=9	=9	=9	=9	=9	=9	=9	=9	=9	=9	=9	=9	=9	=9	=9	=9
!LO:MO:mod=*tremolo	!	!	!	!	!	!	!LO:MO:mod=*null:null	!	!	!LO:MO:mod=*null:null	!	!	!LO:MO:mod=*null:null	!	!	!LO:MO:mod=*null:null	!	!	!	!	!	!
*null	*	*	*	*	*	*	*2\right	*	*	*2\right	*	*	*2\right	*	*	*2\right	*	*	*	*	*	*
!!LO:TX:a:t= :mod=Tutti
!	!	!LO:MO:mod=!LO&colon;DY&colon;ed=brack	!	!	!	!LO:MO:mod=!LO&colon;DY&colon;ed=brack	!	!	!LO:MO:mod=!LO&colon;DY&colon;ed=brack	!	!	!LO:MO:mod=!LO&colon;DY&colon;ed=brack	!	!	!	!	!	!LO:MO:mod=!LO&colon;DY&colon;ed=brack	!	!	!	!LO:MO:mod=!LO&colon;DY&colon;ed=brack
!	!	!null	!	!	!	!null	!	!	!null	!	!	!null	!	!	!	!	!	!null	!	!	!	!null
!LO:TX:a:i:t=tutti:mod=	!	!LO:MO:null:mod=f	!	!LO:DY:a:t=for:mod=%s	!	!LO:MO:null:mod=f	!	!	!LO:MO:null:mod=f	!	!	!LO:MO:null:mod=f	!	!	!	!	! 	!LO:MO:null:mod=f	!LO:TX:t=P:problem=&colon;znak repetycji	!LO:DY:a:t=for:mod=%s	!	!LO:MO:null:mod=f
8E\L	.	.	4.g#/	f	4.b\	.	2E\	Lau-	.	2e\	Lau-	.	2g#\	Lau-	f	2b\	Lau-	.	4e/	f	4ee\	.
8E\	.	.	.	.	.	.	.	.	.	.	.	.	.	.	.	.	.	.	.	.	.	.
8E\	.	.	.	.	.	.	.	.	.	.	.	.	.	.	.	.	.	.	8e/L	.	8ee\L	.
8E\J	.	.	16a/LL	.	16cc#\LL	.	.	.	.	.	.	.	.	.	.	.	.	.	8e/J	.	8ee\J	.
.	.	.	16g#/JJ	.	16b\JJ	.	.	.	.	.	.	.	.	.	.	.	.	.	.	.	.	.
8E\L	.	.	4g#/	.	4ee\	.	4E\	-da-	.	4e\	-da-	.	4g#\	-da-	.	4ee\	-da-	.	4e/	.	4ee\	.
8E\	.	.	.	.	.	.	.	.	.	.	.	.	.	.	.	.	.	.	.	.	.	.
8E\	r7n 5	.	4b\	.	4ddn\	.	4E\	-te	.	4e\	-te	.	4b\	-te	.	4ddn\	-te	.	4r	.	4r	.
8E\J	.	.	.	.	.	.	.	.	.	.	.	.	.	.	.	.	.	.	.	.	.	.
=10	=10	=10	=10	=10	=10	=10	=10	=10	=10	=10	=10	=10	=10	=10	=10	=10	=10	=10	=10	=10	=10	=10
!LO:MO:mod=*null:null	!	!	!	!	!	!	!	!	!	!	!	!	!	!	!	!	!	!	!	!	!	!
*tremolo	*	*	*	*	*	*	*	*	*	*	*	*	*	*	*	*	*	*	*	*	*	*
!	!	!	!	!	!	!	!	!	!	!	!	!	!	!	!	!LO:LB:g=original	!	!	!	!	!	!
8E\L	6 4	.	4.a/	.	4.cc#\	.	4.E\	Do-	.	4.e\	Do-	.	4.a\	Do-	.	4.cc#\	Do-	.	4e/	.	4ee\	.
8E\	.	.	.	.	.	.	.	.	.	.	.	.	.	.	.	.	.	.	.	.	.	.
8E\	.	.	.	.	.	.	.	.	.	.	.	.	.	.	.	.	.	.	8e/L	.	8ee\L	.
8E\J	.	.	16b/LL	.	16dd#X\LL	.	8E\	-mi-	.	8e\	-mi-	.	8a\	-mi-	.	8cc#\	-mi-	.	8e/J	.	8ee\J	.
.	.	.	16cc#/JJ	.	16ee\JJ	.	.	.	.	.	.	.	.	.	.	.	.	.	.	.	.	.
!	!	!	!	!	!	!	!	!	!	!	!	!	!LO:TX:a:i:t=g:mod=	!	!	!	!	!	!	!	!	!
8E\L	5_ 3_	.	8g#/L	.	4b\	.	2E\	-num	.	2e\	-num	.	2g#\	-num	.	2b\	-num	.	4e/	.	4ee\	.
8E\	x x	.	8e/	.	.	.	.	.	.	.	.	.	.	.	.	.	.	.	.	.	.	.
8E\	x x	.	8g#/	.	4r	.	.	.	.	.	.	.	.	.	.	.	.	.	4e/	.	4ee\	.
8E\J	x x	.	8b/J	.	.	.	.	.	.	.	.	.	.	.	.	.	.	.	.	.	.	.
=11	=11	=11	=11	=11	=11	=11	=11	=11	=11	=11	=11	=11	=11	=11	=11	=11	=11	=11	=11	=11	=11	=11
*	*	*	*	*	*	*	*	*ij	*	*	*ij	*	*	*ij	*	*	*ij	*	*	*	*	*
!	!	!	!	!	!	!	!	!	!	!	!	!	!	!	!	!	!	!	!LO:TX:t=P:problem=2 takty zapisane powtórką	!	!	!
!	!	!	!	!	!LO:LB:g=original	!	!	!LO:MO:mod=lau-	!	!	!LO:MO:mod=lau-	!	!	!LO:MO:mod=lau-	!	!	!LO:MO:mod=lau-	!	!	!	!	!
8E\L	x x	.	4.g#/	.	4.b\	.	2E\	Lau-	.	2e\	Lau-	.	2g#\	Lau-	.	2b\	Lau-	.	4e/	.	4ee\	.
8E\	x x	.	.	.	.	.	.	.	.	.	.	.	.	.	.	.	.	.	.	.	.	.
8E\	x x	.	.	.	.	.	.	.	.	.	.	.	.	.	.	.	.	.	8e/L	.	8ee\L	.
8E\J	x x	.	16a/LL	.	16cc#\LL	.	.	.	.	.	.	.	.	.	.	.	.	.	8e/J	.	8ee\J	.
.	.	.	16g#/JJ	.	16b\JJ	.	.	.	.	.	.	.	.	.	.	.	.	.	.	.	.	.
!LO:MO:mod=*null:null	!	!	!	!	!	!	!	!	!	!	!	!	!	!	!	!	!	!	!	!	!	!
*Xtremolo	*	*	*	*	*	*	*	*	*	*	*	*	*	*	*	*	*	*	*	*	*	*
8E\L	.	.	4g#/	.	4ee\	.	4E\	-da-	.	4e\	-da-	.	4g#\	-da-	.	4ee\	-da-	.	4e/	.	4ee\	.
8E\	r7n_ 5_	.	.	.	.	.	.	.	.	.	.	.	.	.	.	.	.	.	.	.	.	.
!	!	!	!	!	!	!	!	!	!	!	!	!	!LO:TX:a:i:t=h:mod=	!	!	!	!	!	!	!	!	!
8E\	x x	.	4b/	.	4ddn\	.	4E\	-te	.	4e\	-te	.	4b\	-te	.	4ddn\	-te	.	4r	.	4r	.
8E\J	x x	.	.	.	.	.	.	.	.	.	.	.	.	.	.	.	.	.	.	.	.	.
=12	=12	=12	=12	=12	=12	=12	=12	=12	=12	=12	=12	=12	=12	=12	=12	=12	=12	=12	=12	=12	=12	=12
!LO:MO:mod=*null:null	!	!	!	!	!	!	!	!	!	!	!	!	!	!	!	!	!	!	!	!	!	!
*tremolo	*	*	*	*	*	*	*	*	*	*	*	*	*	*	*	*	*	*	*	*	*	*
8E\L	6 4	.	4.a/	.	4.cc#\	.	4.E\	Do-	.	4.e\	Do-	.	4.a\	Do-	.	4.cc#\	Do-	.	4e/	.	4ee\	.
8E\	.	.	.	.	.	.	.	.	.	.	.	.	.	.	.	.	.	.	.	.	.	.
8E\	.	.	.	.	.	.	.	.	.	.	.	.	.	.	.	.	.	.	8e/L	.	8ee\L	.
8E\J	.	.	16b/LL	.	16dd#X\LL	.	8E\	-mi-	.	8e\	-mi-	.	8a\	-mi-	.	8cc#\	-mi-	.	8e/J	.	8ee\J	.
.	.	.	16cc#/JJ	.	16ee\JJ	.	.	.	.	.	.	.	.	.	.	.	.	.	.	.	.	.
!	!	!	!	!	!	!	!LO:LB:g=original	!	!	!	!	!	!	!	!	!	!	!	!	!	!	!
8E\L	5 3	.	8g#/L	.	4b\	.	2E\	-num	.	2e\	-num	.	2g#\	-num	.	2b\	-num	.	4e/	.	4ee\	.
*	*	*	*	*	*	*	*	*Xij	*	*	*Xij	*	*	*Xij	*	*	*Xij	*	*	*	*	*
8E\	.	.	8e/	.	.	.	.	.	.	.	.	.	.	.	.	.	.	.	.	.	.	.
8E\	.	.	8g#/	.	4r	.	.	.	.	.	.	.	.	.	.	.	.	.	4e/	.	4ee\	.
8E\J	.	.	8b/J	.	.	.	.	.	.	.	.	.	.	.	.	.	.	.	.	.	.	.
=13	=13	=13	=13	=13	=13	=13	=13	=13	=13	=13	=13	=13	=13	=13	=13	=13	=13	=13	=13	=13	=13	=13
!	!	!	!	!	!	!	!	!	!	!	!	!	!LO:LB:g=original	!	!	!	!	!	!	!	!	!
!	!	!	!	!	!	!	!	!LO:MO:mod=lau-	!	!LO:LB:g=original	!LO:MO:mod=lau-	!	!	!LO:MO:mod=lau-	!	!	!LO:MO:mod=lau-	!	!	!	!	!
8E\L	.	.	4.g#/	.	4.ee\	.	2E\	lau-	.	2B\	Lau-	.	2g#\	Lau-	.	4.ee\	Lau-	.	4e/	.	4ee\	.
8E\	.	.	.	.	.	.	.	.	.	.	.	.	.	.	.	.	.	.	.	.	.	.
8E\	.	.	.	.	.	.	.	.	.	.	.	.	.	.	.	.	.	.	8ee\L	.	8gg#\L	.
!	!	!	!	!	!	!	!	!	!	!	!	!	!	!	!	!	!LO:MO:mod=.	!	!	!	!	!
8E\J	.	.	8a/	.	8ff#\	.	.	.	.	.	.	.	.	.	.	8ff#\	-da-	.	8ee\J	.	8gg#\J	.
!LO:MO:mod=*null:null	!	!	!	!	!	!	!	!	!	!	!	!	!	!	!	!	!	!	!	!	!	!
*Xtremolo	*	*	*	*	*	*	*	*	*	*	*	*	*	*	*	*	*	*	*	*	*	*
!	!	!	!	!	!	!	!	!	!	!	!	!	!	!	!	!	!LO:MO:mod=-da-	!	!	!	!	!
8E\L	.	.	4g#/	.	4ee\	.	4E\	-da-	.	4B\	-da-	.	4g#\	-da-	.	4ee\	-te	.	4ee\	.	4gg#\	.
8E\	.	.	.	.	.	.	.	.	.	.	.	.	.	.	.	.	.	.	.	.	.	.
!	!	!	!	!	!	!	!	!	!	!	!	!	!	!	!	!	!LO:MO:null:mod=-te	!	!	!	!	!
8E\	r7n_ 5_	.	4b/	.	4ddn\	.	4E\	-te	.	4B\	-te	.	4b\	-te	.	4ddn\	.	.	4r	.	4r	.
8E\J	x x	.	.	.	.	.	.	.	.	.	.	.	.	.	.	.	.	.	.	.	.	.
=14	=14	=14	=14	=14	=14	=14	=14	=14	=14	=14	=14	=14	=14	=14	=14	=14	=14	=14	=14	=14	=14	=14
!LO:MO:mod=*null:null	!	!	!	!	!	!	!	!	!	!	!	!	!	!	!	!	!	!	!	!	!	!
*tremolo	*	*	*	*	*	*	*	*	*	*	*	*	*	*	*	*	*	*	*	*	*	*
!	!	!	!LO:LB:g=original	!	!	!	!	!	!	!	!	!	!	!	!	!	!	!	!	!	!	!
8A\L	3	.	4.a/	.	4.cc#\	.	4.A\	Do-	.	4.c#\	Do-	.	4.a\	Do-	.	4.cc#\	Do-	.	4ff#\	.	4aa\	.
8A\	.	.	.	.	.	.	.	.	.	.	.	.	.	.	.	.	.	.	.	.	.	.
8A\	.	.	.	.	.	.	.	.	.	.	.	.	.	.	.	.	.	.	8ff#\L	.	8aa\L	.
8A\J	.	.	8b\	.	16dd#X\LL	.	8A\	-mi-	.	8c#\	-mi-	.	8a\	-mi-	.	16dd#X\LL	-mi-	.	8ff#\J	.	8aa\J	.
!	!	!	!	!	!	!	!	!	!	!	!	!	!	!	!	!LO:SIC:s=16ee#JJ	!	!	!	!	!	!
.	.	.	.	.	16ee#X\JJ	.	.	.	.	.	.	.	.	.	.	16ee\JJ	.	.	.	.	.	.
!	!	!	!	!	!	!	!	!	!	!LO:MO:mod=!null:null	!	!	!	!	!	!	!	!	!	!	!	!
!	!	!	!	!	!	!	!	!	!	!LO:N:vis=8	!	!	!	!	!	!	!	!	!	!	!	!
8A\L	6	.	4cc#\	.	4ff#\	.	4A\	-num	.	4c#\	-num	.	4a\	-num	.	4ff#\	-num	.	4ff#\	.	4aa\	.
8A\	.	.	.	.	.	.	.	.	.	.	.	.	.	.	.	.	.	.	.	.	.	.
*	*	*	*	*	*	*	*	*ij	*	*	*ij	*	*	*ij	*	*	*ij	*	*	*	*	*
8A\	5	.	4cc#\	.	8ff#\L	.	4A\	Do-	.	4c#\	Do-	.	4a\	Do-	.	8ff#\L	Do-	.	4r	.	4r	.
8A\J	.	.	.	.	8een\J	.	.	.	.	.	.	.	.	.	.	8ee\J	.	.	.	.	.	.
=15	=15	=15	=15	=15	=15	=15	=15	=15	=15	=15	=15	=15	=15	=15	=15	=15	=15	=15	=15	=15	=15	=15
!	!	!	!	!	!	!	!	!	!	!	!	!	!	!	!	!	!	!	!	!	!LO:LB:g=original	!
!	!	!	!	!	!	!	!	!	!	!	!	!	!	!	!	!LO:LB:g=original	!	!	!	!	!	!
8B\L	#_	.	4f#/	.	4dd#\	.	4B\	-mi-	.	4B\	-mi-	.	4f#\	-mi-	.	4dd#\	-mi-	.	4b/	.	4ff#\	.
8B\	x x	.	.	.	.	.	.	.	.	.	.	.	.	.	.	.	.	.	.	.	.	.
8B\	x x	.	4f#/	.	4dd#\	.	4B\	-num	.	4B\	-num	.	4f#\	-num	.	4dd#\	-num	.	8b/L	.	8ff#\L	.
*	*	*	*	*	*	*	*	*Xij	*	*	*Xij	*	*	*Xij	*	*	*Xij	*	*	*	*	*
8B\J	x x	.	.	.	.	.	.	.	.	.	.	.	.	.	.	.	.	.	8b/J	.	8ff#\J	.
8BB/L	x x	.	4b/	.	4dd#\	.	4B\	om-	.	4B\	om-	.	4f#\	om-	.	4dd#\	om-	.	4b/	.	4ff#\	.
8BB/	x x	.	.	.	.	.	.	.	.	.	.	.	.	.	.	.	.	.	.	.	.	.
8BB/	x x	.	4a/	.	8ee\L	.	4B\	-nes	.	4B\	-nes	.	4f#\	-nes	.	4dd#\	-nes	.	4b/	.	4ff#\	.
!	!	!	!	!	!LO:TX:b:i:t=Verte Subitto:mod=	!	!	!	!	!	!	!	!	!	!	!	!	!	!	!	!	!
8BB/J	x x	.	.	.	8ff#\J	.	.	.	.	.	.	.	.	.	.	.	.	.	.	.	.	.
=16	=16	=16	=16	=16	=16	=16	=16	=16	=16	=16	=16	=16	=16	=16	=16	=16	=16	=16	=16	=16	=16	=16
!	!	!	!LO:MO:mod=*tremolo	!	!	!	!	!	!	!	!	!	!	!	!	!	!	!	!	!	!LO:MO:mod=*null:null	!
*	*	*	*null	*	*	*	*	*	*	*	*	*	*	*	*	*	*	*	*	*	*2\right	*
!	!	!	!	!	!	!	!	!	!	!	!	!	!	!	!	!	!	!	!LO:TX:t=P:problem=&colon;znak repetycji	!	!	!
!	!	!	!	!	!LO:PB:g=original	!	!	!LO:MO:mod=gen-	!	!	!	!	!	!LO:MO:mod=gen-	!	!	!	!	!	!	!	!
8E\L	.	.	8g#/L	.	4ee\	.	2E\	Gen-	.	2B\	gen-	.	2g#\	Gen-	.	2ee\	gen-	.	2e/	.	2ee\	.
8E\	.	.	8g#/	.	.	.	.	.	.	.	.	.	.	.	.	.	.	.	.	.	.	.
8E\	.	.	8g#/	.	8b\L	.	.	.	.	.	.	.	.	.	.	.	.	.	.	.	.	.
8E\J	.	.	8g#/J	.	16cc#\L	.	.	.	.	.	.	.	.	.	.	.	.	.	.	.	.	.
.	.	.	.	.	16b\JJ	.	.	.	.	.	.	.	.	.	.	.	.	.	.	.	.	.
!	!	!	!LO:MO:mod=*null:null	!	!	!	!	!	!	!	!	!	!	!	!	!	!	!	!	!	!	!
*	*	*	*tremolo	*	*	*	*	*	*	*	*	*	*	*	*	*	*	*	*	*	*	*
8E\L	.	.	8g#/L	.	4ee\	.	4E\	-tes	.	4B\	-tes	.	4g#\	-tes	.	4ee\	-tes	.	4e/	.	4ee\	.
8E\	.	.	8g#/	.	.	.	.	.	.	.	.	.	.	.	.	.	.	.	.	.	.	.
8E\	.	.	8g#/	.	4gg#\	.	4E\	lau-	.	4B\	lau-	.	4g#\	lau-	.	4ee\	lau-	.	4e/	.	4ee\	.
8E\J	.	.	8g#/J	.	.	.	.	.	.	.	.	.	.	.	.	.	.	.	.	.	.	.
=17	=17	=17	=17	=17	=17	=17	=17	=17	=17	=17	=17	=17	=17	=17	=17	=17	=17	=17	=17	=17	=17	=17
!	!	!	!	!	!	!	!	!	!	!	!	!	!	!	!	!	!	!	!LO:LB:g=original	!	!	!
8E\L	.	.	8g#/L	.	4.bb\	.	2E\	-da-	.	2e\	-da-	.	2g#\	-da-	.	2.ee\	-da-	.	4e/	.	4ee\	.
8E\	.	.	8g#/	.	.	.	.	.	.	.	.	.	.	.	.	.	.	.	.	.	.	.
8E\	.	.	8g#/	.	.	.	.	.	.	.	.	.	.	.	.	.	.	.	8e/L	.	8ee\L	.
8E\J	.	.	8g#/J	.	8gg#\	.	.	.	.	.	.	.	.	.	.	.	.	.	8e/J	.	8ee\J	.
!	!	!	!LO:MO:mod=*null:null	!	!	!	!	!	!	!	!	!	!	!	!	!	!	!	!	!	!	!
*	*	*	*2\right	*	*	*	*	*	*	*	*	*	*	*	*	*	*	*	*	*	*	*
8E\L	.	.	8b\L	.	4ee\	.	2E\	-te	.	2e\	-te	.	2g#\	-te	.	.	.	.	4e/	.	4ee\	.
8E\	.	.	8b\	.	.	.	.	.	.	.	.	.	.	.	.	.	.	.	.	.	.	.
8E\	.	.	8b\	.	8ee\L	.	.	.	.	.	.	.	.	.	.	4ddn\	-te	.	4e/	.	4ee\	.
8E\J	.	.	8b\J	.	8ddn\J	.	.	.	.	.	.	.	.	.	.	.	.	.	.	.	.	.
=18	=18	=18	=18	=18	=18	=18	=18	=18	=18	=18	=18	=18	=18	=18	=18	=18	=18	=18	=18	=18	=18	=18
!	!	!	!	!	!	!	!	!	!	!	!	!	!LO:LB:g=original	!	!	!	!	!	!	!	!	!
!LO:LB:g=original	!	!	!	!	!	!	!LO:LB:g=original	!	!	!	!LO:MO:mod=lau-	!	!	!LO:MO:mod=lau-	!	!	!	!	!	!	!	!
8E\L	6_ 4_	.	8a/L	.	4cc#\	.	2E\	lau-	.	2e\	Lau-	.	2a\	Lau-	.	2cc#\	lau-	.	2e/	.	2ee\	.
8E\	x x	.	8a/	.	.	.	.	.	.	.	.	.	.	.	.	.	.	.	.	.	.	.
8E\	x x	.	8a/	.	8cc#\L	.	.	.	.	.	.	.	.	.	.	.	.	.	.	.	.	.
8E\J	x x	.	8a/J	.	16b\L	.	.	.	.	.	.	.	.	.	.	.	.	.	.	.	.	.
.	.	.	.	.	16cc#\JJ	.	.	.	.	.	.	.	.	.	.	.	.	.	.	.	.	.
8E\L	x x	.	8c#/L	.	4ee\	.	4E\	-da-	.	4e\	-da-	.	4a\	-da-	.	4cc#\	-da-	.	4e/	.	4ee\	.
8E\	x x	.	8c#/	.	.	.	.	.	.	.	.	.	.	.	.	.	.	.	.	.	.	.
8E\	x x	.	8c#/	.	4aa\	.	4E\	-te	.	4e\	-te	.	4a\	-te	.	4cc#\	-te	.	4e/	.	4ee\	.
8E\J	x x	.	8c#/J	.	.	.	.	.	.	.	.	.	.	.	.	.	.	.	.	.	.	.
=19	=19	=19	=19	=19	=19	=19	=19	=19	=19	=19	=19	=19	=19	=19	=19	=19	=19	=19	=19	=19	=19	=19
!	!	!	!	!	!	!	!	!	!	!LO:LB:g=original	!	!	!	!	!	!LO:SIC:s=1dd#	!	!	!	!	!	!
8E\L	7_ 2_	.	8d#/L	.	4.ff#\	.	1E	e-	.	1e	e-	.	1f#	e-	.	1dd#X	e-	.	4e/	.	4ee\	.
8E\	x x	.	8d#/	.	.	.	.	.	.	.	.	.	.	.	.	.	.	.	.	.	.	.
8E\	x x	.	8d#/	.	.	.	.	.	.	.	.	.	.	.	.	.	.	.	8e/L	.	8ee\L	.
8E\J	x x	.	8d#/J	.	16gg#\LL	.	.	.	.	.	.	.	.	.	.	.	.	.	8e/J	.	8ee\J	.
.	.	.	.	.	16ff#\JJ	.	.	.	.	.	.	.	.	.	.	.	.	.	.	.	.	.
!	!	!	!	!	!LO:SIC:s=8dd#L	!	!	!	!	!	!	!	!	!	!	!	!	!	!	!	!	!
8E\L	x x	.	8f#/L	.	8dd#X\L	.	.	.	.	.	.	.	.	.	.	.	.	.	4e/	.	4ee\	.
8E\	x x	.	8f#/	.	8b\	.	.	.	.	.	.	.	.	.	.	.	.	.	.	.	.	.
8E\	x x	.	8f#/	.	8cc#\	.	.	.	.	.	.	.	.	.	.	.	.	.	4e/	.	4ee\	.
8E\J	x x	.	8f#/J	.	8dd#\J	.	.	.	.	.	.	.	.	.	.	.	.	.	.	.	.	.
=20	=20	=20	=20	=20	=20	=20	=20	=20	=20	=20	=20	=20	=20	=20	=20	=20	=20	=20	=20	=20	=20	=20
!	!	!	!	!	!	!	!	!	!	!	!	!	!	!	!	!	!	!	!LO:TX:t=P:problem=4 takty zapisane powtórką	!	!	!
8E\L	8_ 3_	.	8g#/L	.	4ee\	.	2E\	-um	.	2e\	-um	.	2g#\	-um	.	2ee\	-um	.	2e/	.	2ee\	.
8E\	x x	.	8g#/	.	.	.	.	.	.	.	.	.	.	.	.	.	.	.	.	.	.	.
8E\	x x	.	8g#/	.	8b\L	.	.	.	.	.	.	.	.	.	.	.	.	.	.	.	.	.
8E\J	x x	.	8g#/J	.	16cc#\L	.	.	.	.	.	.	.	.	.	.	.	.	.	.	.	.	.
.	.	.	.	.	16b\JJ	.	.	.	.	.	.	.	.	.	.	.	.	.	.	.	.	.
!	!	!	!	!	!	!	!	!	!	!	!	!	!	!LO:MO:mod=lau-	!	!	!	!	!	!	!	!
8E\L	x x	.	8g#/L	.	4ee\	.	2E\	lau-	.	2e\	lau-	.	2g#\	Lau-	.	2ee\	lau-	.	4e/	.	4ee\	.
8E\	x x	.	8g#/	.	.	.	.	.	.	.	.	.	.	.	.	.	.	.	.	.	.	.
8E\	x x	.	8g#/	.	4gg#\	.	.	.	.	.	.	.	.	.	.	.	.	.	4e/	.	4ee\	.
8E\J	x x	.	8g#/J	.	.	.	.	.	.	.	.	.	.	.	.	.	.	.	.	.	.	.
=21	=21	=21	=21	=21	=21	=21	=21	=21	=21	=21	=21	=21	=21	=21	=21	=21	=21	=21	=21	=21	=21	=21
!	!	!	!	!	!	!	!	!	!	!	!	!	!	!	!	!	!	!	!LO:LB:g=original	!	!	!
!	!	!	!	!	!	!	!	!	!	!	!	!	!	!	!	!LO:LB:g=original	!	!	!	!	!	!
8E\L	.	.	8g#/L	.	4.bb\	.	2E\	-da-	.	2e\	-da-	.	2g#\	-da-	.	2.ee\	-da-	.	4e/	.	4ee\	.
8E\	.	.	8g#/	.	.	.	.	.	.	.	.	.	.	.	.	.	.	.	.	.	.	.
8E\	.	.	8g#/	.	.	.	.	.	.	.	.	.	.	.	.	.	.	.	8e/L	.	8ee\L	.
8E\J	.	.	8g#/J	.	8gg#\	.	.	.	.	.	.	.	.	.	.	.	.	.	8e/J	.	8ee\J	.
!LO:MO:mod=*null:null	!	!	!	!	!	!	!	!	!	!	!	!	!	!	!	!	!	!	!	!	!	!
*Xtremolo	*	*	*	*	*	*	*	*	*	*	*	*	*	*	*	*	*	*	*	*	*	*
8E\L	.	.	8b\L	.	4ee\	.	2E\	-te	.	2e\	-te	.	2g#\	-te	.	.	.	.	4e/	.	4ee\	.
8E\	.	.	8b\	.	.	.	.	.	.	.	.	.	.	.	.	.	.	.	.	.	.	.
8E\	.	.	8b\	.	8ee\L	.	.	.	.	.	.	.	.	.	.	4ddn\	-te	.	4e/	.	4ee\	.
8E\J	.	.	8b\J	.	8ddn\J	.	.	.	.	.	.	.	.	.	.	.	.	.	.	.	.	.
=22	=22	=22	=22	=22	=22	=22	=22	=22	=22	=22	=22	=22	=22	=22	=22	=22	=22	=22	=22	=22	=22	=22
!LO:MO:mod=*null:null	!	!	!	!	!	!	!	!	!	!	!	!	!	!	!	!	!	!	!	!	!	!
*tremolo	*	*	*	*	*	*	*	*	*	*	*	*	*	*	*	*	*	*	*	*	*	*
!	!	!	!	!	!LO:LB:g=original	!	!	!	!	!	!	!	!	!	!	!	!	!	!	!	!	!
8E\L	6_ 4_	.	8a/L	.	4cc#\	.	2E\	om-	.	2e\	om-	.	2a\	om-	.	2cc#\	om-	.	2e/	.	2ee\	.
8E\	x x	.	8a/	.	.	.	.	.	.	.	.	.	.	.	.	.	.	.	.	.	.	.
8E\	x x	.	8a/	.	8cc#\L	.	.	.	.	.	.	.	.	.	.	.	.	.	.	.	.	.
8E\J	x x	.	8a/J	.	16b\L	.	.	.	.	.	.	.	.	.	.	.	.	.	.	.	.	.
.	.	.	.	.	16cc#\JJ	.	.	.	.	.	.	.	.	.	.	.	.	.	.	.	.	.
8E\L	x x	.	8c#/L	.	4ee\	.	2E\	-nes	.	2e\	-nes	.	2a\	-nes	.	2cc#\	-nes	.	4e/	.	4ee\	.
8E\	x x	.	8c#/	.	.	.	.	.	.	.	.	.	.	.	.	.	.	.	.	.	.	.
8E\	x x	.	8c#/	.	4aa\	.	.	.	.	.	.	.	.	.	.	.	.	.	4e/	.	4ee\	.
8E\J	x x	.	8c#/J	.	.	.	.	.	.	.	.	.	.	.	.	.	.	.	.	.	.	.
=23	=23	=23	=23	=23	=23	=23	=23	=23	=23	=23	=23	=23	=23	=23	=23	=23	=23	=23	=23	=23	=23	=23
!	!	!	!	!	!	!	!	!	!	!	!	!	!	!	!	!LO:SIC:s=2dd#	!	!	!	!	!	!
8E\L	7_ 2_	.	8d#/L	.	4.ff#\	.	2E\	po-	.	2e\	po-	.	2f#\	po-	.	2dd#X\	po-	.	4e/	.	4ee\	.
8E\	x x	.	8d#/	.	.	.	.	.	.	.	.	.	.	.	.	.	.	.	.	.	.	.
8E\	x x	.	8d#/	.	.	.	.	.	.	.	.	.	.	.	.	.	.	.	8e/L	.	8ee\L	.
8E\J	x x	.	8d#/J	.	16gg#\LL	.	.	.	.	.	.	.	.	.	.	.	.	.	8e/J	.	8ee\J	.
.	.	.	.	.	16ff#\JJ	.	.	.	.	.	.	.	.	.	.	.	.	.	.	.	.	.
!	!	!	!	!	!LO:SIC:s=8dd#L	!	!	!	!	!	!	!	!	!	!	!	!	!	!	!	!	!
8E\L	x x	.	8f#/L	.	8dd#X\L	.	2E\	-pu-	.	2e\	-pu-	.	2f#\	-pu-	.	2dd#\	-pu-	.	4e/	.	4ee\	.
8E\	x x	.	8f#/	.	8b\	.	.	.	.	.	.	.	.	.	.	.	.	.	.	.	.	.
8E\	x x	.	8f#/	.	8cc#\	.	.	.	.	.	.	.	.	.	.	.	.	.	4e/	.	4ee\	.
8E\J	x x	.	8f#/J	.	8dd#\J	.	.	.	.	.	.	.	.	.	.	.	.	.	.	.	.	.
=24	=24	=24	=24	=24	=24	=24	=24	=24	=24	=24	=24	=24	=24	=24	=24	=24	=24	=24	=24	=24	=24	=24
*	*	*	*^	*	*	*	*	*	*	*	*	*	*	*	*	*	*	*	*	*	*	*
*	*	*	*	*tremolo	*	*	*	*	*	*	*	*	*	*	*	*	*	*	*	*	*	*	*
!	!	!	!	!	!	!	!	!	!	!	!	!	!	!	!	!	!	!	!	!	!	!LO:PB:g=original	!
!	!	!	!	!	!	!	!	!	!	!	!	!	!	!LO:LB:g=original	!	!	!	!	!	!	!	!	!
8E\L	3	.	8b/L	8g#\L	.	4ee\	.	2E\	-li	.	2e\	-li	.	2g#\	-li	.	2ee\	-li	.	4e/	.	4ee\	.
8E\	.	.	8b/	8g#\	.	.	.	.	.	.	.	.	.	.	.	.	.	.	.	.	.	.	.
8E\	.	.	8b/	8g#\	.	8gg#\L	.	.	.	.	.	.	.	.	.	.	.	.	.	4r	.	4r	.
8E\J	.	.	8b/J	8g#\J	.	16ff#\L	.	.	.	.	.	.	.	.	.	.	.	.	.	.	.	.	.
.	.	.	.	.	.	16gg#\JJ	.	.	.	.	.	.	.	.	.	.	.	.	.	.	.	.	.
!	!	!	!	!	!	!	!	!	!	!	!	!	!	!	!	!	!	!LO:MO:mod=lau-	!	!	!	!	!
8D#\L	6 5	.	8b/L	8f#\L	.	4.bb\	.	2D#\	lau-	.	2B\	lau-	.	2a\	lau-	.	2ff#\	Lau-	.	4b/	.	4ff#\	.
8D#\	.	.	8b/	8f#\	.	.	.	.	.	.	.	.	.	.	.	.	.	.	.	.	.	.	.
8D#\	.	.	8b/	8f#\	.	.	.	.	.	.	.	.	.	.	.	.	.	.	.	8b/L	.	8ff#\L	.
8D#\J	.	.	8b/J	8f#\J	.	8aa\	.	.	.	.	.	.	.	.	.	.	.	.	.	8b/J	.	8ff#\J	.
!	!	!	!LO:MO:mod=*null:null	!LO:MO:mod=*null:null	!	!	!	!	!	!	!	!	!	!	!	!	!	!	!	!	!	!	!
*	*	*	*Xtremolo	*Xtremolo	*	*	*	*	*	*	*	*	*	*	*	*	*	*	*	*	*	*	*
=25	=25	=25	=25	=25	=25	=25	=25	=25	=25	=25	=25	=25	=25	=25	=25	=25	=25	=25	=25	=25	=25	=25	=25
!	!	!	!	!	!	!	!	!LO:LB:g=original	!	!	!	!	!	!	!	!	!	!	!	!	!	!	!
!	!	!	!LO:LB:g=original	!LO:LB:g=original	!	!	!	!	!	!	!	!	!	!	!	!	!	!	!	!	!	!	!
8E\L	.	.	8b/L	8g#\L	.	4gg#\	.	2E\	-da-	.	2B\	-da-	.	2g#\	-da-	.	2ee\	-da-	.	4g#/	.	4ee\	.
8E\	.	.	8b/	8g#\	.	.	.	.	.	.	.	.	.	.	.	.	.	.	.	.	.	.	.
8E\	.	.	8b/	8g#\	.	8gg#\L	.	.	.	.	.	.	.	.	.	.	.	.	.	4r	.	4r	.
8E\J	.	.	8b/J	8g#\J	.	16ff#\L	.	.	.	.	.	.	.	.	.	.	.	.	.	.	.	.	.
.	.	.	.	.	.	16gg#\JJ	.	.	.	.	.	.	.	.	.	.	.	.	.	.	.	.	.
!	!	!	!LO:MO:mod=*null:null	!LO:MO:mod=*null:null	!	!	!	!	!	!	!	!	!	!	!	!	!	!	!	!	!	!	!
*	*	*	*tremolo	*tremolo	*	*	*	*	*	*	*	*	*	*	*	*	*	*	*	*	*	*	*
8D#\L	6 5	.	8b/L	8f#\L	.	4.bb\	.	2D#\	-te	.	2B\	-te	.	2a\	-te	.	2ff#\	-te	.	4b/	.	4ff#\	.
8D#\	.	.	8b/	8f#\	.	.	.	.	.	.	.	.	.	.	.	.	.	.	.	.	.	.	.
8D#\	.	.	8b/	8f#\	.	.	.	.	.	.	.	.	.	.	.	.	.	.	.	8b/L	.	8ff#\L	.
8D#\J	.	.	8b/J	8f#\J	.	8aa\	.	.	.	.	.	.	.	.	.	.	.	.	.	8b/J	.	8ff#\J	.
=26	=26	=26	=26	=26	=26	=26	=26	=26	=26	=26	=26	=26	=26	=26	=26	=26	=26	=26	=26	=26	=26	=26	=26
*	*	*	*	*tremolo	*	*	*	*	*	*	*	*	*	*	*	*	*	*	*	*	*	*	*
!	!	!	!	!	!	!	!	!	!	!	!LO:LB:g=original	!	!	!	!	!	!	!	!	!	!	!	!
8E\L	.	.	8b/L	8g#\L	.	4gg#\	.	2E\	e-	.	2e\	e-	.	2g#\	e-	.	1ee	e-	.	4ee\	.	4gg#\	.
8E\	.	.	8b/	8g#\	.	.	.	.	.	.	.	.	.	.	.	.	.	.	.	.	.	.	.
8E\	.	.	8b/	8g#\	.	8gg#\L	.	.	.	.	.	.	.	.	.	.	.	.	.	4ee\	.	8gg#\L	.
8E\J	.	.	8b/J	8g#\J	.	16ff#\L	.	.	.	.	.	.	.	.	.	.	.	.	.	.	.	8gg#\J	.
.	.	.	.	.	.	16gg#\JJ	.	.	.	.	.	.	.	.	.	.	.	.	.	.	.	.	.
*	*	*	*	*Xtremolo	*	*	*	*	*	*	*	*	*	*	*	*	*	*	*	*	*	*	*
8C#/L	6\ 3	.	8ee\L	2ryyyy	.	8aa#X\L	.	2C#/	.	.	2f#\	.	.	2a#X\	.	.	.	.	.	4ff#\	.	4ff#\	.
8C#/	.	.	8ee\	.	.	8ff#\	.	.	.	.	.	.	.	.	.	.	.	.	.	.	.	.	.
8C#/	.	.	8ee\	.	.	8gg#\	.	.	.	.	.	.	.	.	.	.	.	.	.	4ff#\	.	4ff#\	.
8C#/J	.	.	8ee\J	.	.	8aa#\J	.	.	.	.	.	.	.	.	.	.	.	.	.	.	.	.	.
*	*	*	*Xtremolo	*	*	*	*	*	*	*	*	*	*	*	*	*	*	*	*	*	*	*	*
*	*	*	*v	*v	*	*	*	*	*	*	*	*	*	*	*	*	*	*	*	*	*	*	*
=27	=27	=27	=27	=27	=27	=27	=27	=27	=27	=27	=27	=27	=27	=27	=27	=27	=27	=27	=27	=27	=27	=27
8BB/L	.	.	8dd#\L	.	4.bb\	.	2BB/	-um	.	2f#\	-um	.	2b\	-um	.	2dd#\	-um	.	4b/	.	4ff#\	.
8BB/	.	.	8b\	.	.	.	.	.	.	.	.	.	.	.	.	.	.	.	.	.	.	.
8BB/	.	.	8dd#\	.	.	.	.	.	.	.	.	.	.	.	.	.	.	.	4B/	.	4b/	.
8BB/J	.	.	8ff#\J	.	8aa#X\	.	.	.	.	.	.	.	.	.	.	.	.	.	.	.	.	.
8BB/L	.	.	4dd#\	.	8bb\L	.	4B\	om-	.	4B\	om-	.	4f#\	om-	.	4dd#\	om-	.	4B/	.	4b/	.
8BB/	.	.	.	.	8aan\	.	.	.	.	.	.	.	.	.	.	.	.	.	.	.	.	.
8BB/	.	.	4dd#\	.	8gg#\	.	4B\	-nes	.	4B\	-nes	.	4f#\	-nes	.	4dd#\	-nes	.	4B/	.	4b/	.
8BB/J	.	.	.	.	8ff#\J	.	.	.	.	.	.	.	.	.	.	.	.	.	.	.	.	.
!LO:MO:mod=*null:null	!	!	!	!	!	!	!	!	!	!	!	!	!	!	!	!	!	!	!	!	!	!
*Xtremolo	*	*	*	*	*	*	*	*	*	*	*	*	*	*	*	*	*	*	*	*	*	*
=28	=28	=28	=28	=28	=28	=28	=28	=28	=28	=28	=28	=28	=28	=28	=28	=28	=28	=28	=28	=28	=28	=28
!	!	!	!	!	!	!	!	!	!	!	!	!	!	!	!	!LO:LB:g=original	!	!	!	!	!	!
!LO:LB:g=original	!	!	!	!	!LO:LB:g=original	!	!	!	!	!	!	!	!	!	!	!	!	!	!	!	!	!
8BB/L	6_ 4_	.	4ee\	.	4gg#\	.	2B\	po-	.	2B\	po-	.	2g#\	po-	.	2ee\	po-	.	4B/	.	4b/	.
8BB/	x x	.	.	.	.	.	.	.	.	.	.	.	.	.	.	.	.	.	.	.	.	.
8BB/	x x	.	4ee\	.	4gg#\	.	.	.	.	.	.	.	.	.	.	.	.	.	8B/L	.	8b/L	.
8BB/J	x x	.	.	.	.	.	.	.	.	.	.	.	.	.	.	.	.	.	8B/J	.	8b/J	.
!LO:MO:mod=*null:null	!	!	!	!	!	!	!	!	!	!	!	!	!	!	!	!	!	!	!	!	!	!
*tremolo	*	*	*	*	*	*	*	*	*	*	*	*	*	*	*	*	*	*	*	*	*	*
8BB/L	r7# 2	.	4cc#\	.	4aa#X\	.	2B\	-pu-	.	2B\	-pu-	.	2a#X\	-pu-	.	2cc#\	-pu-	.	4B/	.	4b/	.
8BB/	.	.	.	.	.	.	.	.	.	.	.	.	.	.	.	.	.	.	.	.	.	.
8BB/	.	.	4cc#\	.	8aa#\L	.	.	.	.	.	.	.	.	.	.	.	.	.	4B/	.	4b/	.
8BB/J	.	.	.	.	8ff#\J	.	.	.	.	.	.	.	.	.	.	.	.	.	.	.	.	.
!LO:MO:mod=*null:null	!	!	!	!	!	!	!	!	!	!	!	!	!	!	!	!	!	!	!	!	!	!
*Xtremolo	*	*	*	*	*	*	*	*	*	*	*	*	*	*	*	*	*	*	*	*	*	*
=29	=29	=29	=29	=29	=29	=29	=29	=29	=29	=29	=29	=29	=29	=29	=29	=29	=29	=29	=29	=29	=29	=29
!	!	!	!	!	!	!	!	!	!	!	!	!	!	!	!	!	!	!	!LO:LB:g=original	!	!	!
8BB/L	8_ 3_	.	8dd#\L	.	4.bb\	.	2B\	-li	.	2B\	-li	.	2b\	-li	.	2dd#\	-li	.	4B/	.	4b/	.
8BB/	x x	.	8b\	.	.	.	.	.	.	.	.	.	.	.	.	.	.	.	.	.	.	.
8BB/	x x	.	8dd#\	.	.	.	.	.	.	.	.	.	.	.	.	.	.	.	4B/	.	4b/	.
8BB/J	x x	.	8ff#\J	.	8aa#X\	.	.	.	.	.	.	.	.	.	.	.	.	.	.	.	.	.
!LO:MO:mod=*null:null	!	!	!	!	!	!	!	!	!	!	!	!	!	!	!	!	!	!	!	!	!	!
*tremolo	*	*	*	*	*	*	*	*ij	*	*	*ij	*	*	*	*	*	*ij	*	*	*	*	*
8BB/L	.	.	4dd#\	.	8bb\L	.	4B\	om-	.	4B\	om-	.	4f#\	om-	.	4dd#\	om-	.	4B/	.	4b/	.
8BB/	.	.	.	.	8aan\	.	.	.	.	.	.	.	.	.	.	.	.	.	.	.	.	.
8BB/	.	.	4dd#\	.	8gg#\	.	4B\	-nes	.	4B\	-nes	.	4f#\	-nes	.	4dd#\	-nes	.	4B/	.	4b/	.
8BB/J	.	.	.	.	8ff#\J	.	.	.	.	.	.	.	.	.	.	.	.	.	.	.	.	.
=30	=30	=30	=30	=30	=30	=30	=30	=30	=30	=30	=30	=30	=30	=30	=30	=30	=30	=30	=30	=30	=30	=30
!	!	!	!	!	!	!	!	!	!	!	!	!	!	!	!	!	!	!	!	!	!LO:LB:g=original	!
!	!	!	!	!	!	!	!	!	!	!	!	!	!LO:LB:g=original	!	!	!	!	!	!	!	!	!
8BB/L	6 4	.	4ee\	.	4gg#\	.	2B\	po-	.	2B\	po-	.	2g#\	po-	.	2ee\	po-	.	4B/	.	4b/	.
8BB/	.	.	.	.	.	.	.	.	.	.	.	.	.	.	.	.	.	.	.	.	.	.
8BB/	.	.	4ee\	.	4gg#\	.	.	.	.	.	.	.	.	.	.	.	.	.	8B/L	.	8b/L	.
8BB/J	.	.	.	.	.	.	.	.	.	.	.	.	.	.	.	.	.	.	8B/J	.	8b/J	.
8BB/L	r7# 2	.	4cc#\	.	4aa#X\	.	2B\	-pu-	.	2B\	-pu-	.	2a#X\	-pu-	.	2cc#\	-pu-	.	4B/	.	4b/	.
8BB/	.	.	.	.	.	.	.	.	.	.	.	.	.	.	.	.	.	.	.	.	.	.
8BB/	.	.	4cc#\	.	8aa#\L	.	.	.	.	.	.	.	.	.	.	.	.	.	4B/	.	4b/	.
8BB/J	.	.	.	.	8ff#\J	.	.	.	.	.	.	.	.	.	.	.	.	.	.	.	.	.
*Xtremolo	*	*	*	*	*	*	*	*	*	*	*	*	*	*	*	*	*	*	*	*	*	*
=31	=31	=31	=31	=31	=31	=31	=31	=31	=31	=31	=31	=31	=31	=31	=31	=31	=31	=31	=31	=31	=31	=31
!	!	!	!	!	!	!	!	!LO:MO:mod=-li.	!	!	!LO:MO:mod=-li.	!	!	!LO:MO:mod=-li.	!	!	!LO:MO:mod=-li.	!	!	!	!	!
4BB/	8 3	.	4dd#\	.	4bb\	.	2B\	-li	.	2B\	-li	.	2b\	-li	.	2dd#\	-li	.	2B/	.	2b/	.
*	*	*	*	*	*	*	*	*Xij	*	*	*Xij	*	*	*	*	*	*Xij	*	*	*	*	*
4BB/	.	.	4r	.	4r	.	.	.	.	.	.	.	.	.	.	.	.	.	.	.	.	.
!	!	!	!LO:TX:a:i:t=Solo:mod=	!	!LO:TX:a:i:t=Solo:mod=	!	!	!	!	!	!	!	!	!	!	!	!	!	!	!	!	!
2r	.	.	8b\L	.	8dd#\L	.	2r	.	.	2r	.	.	2r	.	.	2r	.	.	2r	.	2r	.
.	.	.	8a#X\	.	8cc#\	.	.	.	.	.	.	.	.	.	.	.	.	.	.	.	.	.
.	.	.	8b\	.	8dd#\	.	.	.	.	.	.	.	.	.	.	.	.	.	.	.	.	.
.	.	.	8cc#\J	.	8ee\J	.	.	.	.	.	.	.	.	.	.	.	.	.	.	.	.	.
=32	=32	=32	=32	=32	=32	=32	=32	=32	=32	=32	=32	=32	=32	=32	=32	=32	=32	=32	=32	=32	=32	=32
!	!	!	!	!	!	!	!LO:LB:g=original	!	!	!	!	!	!LO:TX:i:t=3:mod=	!	!	!	!	!	!	!	!	!
4r	.	.	4.dd#\	.	4.ff#\	.	1r	.	.	1r	.	.	1r	.	.	1r	.	.	1r	.	1r	.
!LO:TX:a:i:t=Solo:mod=	!	!	!	!	!	!	!	!	!	!	!	!	!	!	!	!	!	!	!	!	!	!
4B\	.	.	.	.	.	.	.	.	.	.	.	.	.	.	.	.	.	.	.	.	.	.
.	.	.	8ee\	.	8gg#\	.	.	.	.	.	.	.	.	.	.	.	.	.	.	.	.	.
2F#\	6 4	.	8dd#\L	.	8ff#\L	.	.	.	.	.	.	.	.	.	.	.	.	.	.	.	.	.
.	.	.	8b\	.	8dd#\	.	.	.	.	.	.	.	.	.	.	.	.	.	.	.	.	.
.	5 #	.	8a#X\	.	8cc#\	.	.	.	.	.	.	.	.	.	.	.	.	.	.	.	.	.
.	.	.	8cc#\J	.	8ee\J	.	.	.	.	.	.	.	.	.	.	.	.	.	.	.	.	.
=33	=33	=33	=33	=33	=33	=33	=33	=33	=33	=33	=33	=33	=33	=33	=33	=33	=33	=33	=33	=33	=33	=33
!LO:TX:t=P:problem=dysonujące cyfrowanie	!	!	!LO:LB:g=original	!	!	!	!	!	!	!	!	!	!	!	!	!	!	!	!	!	!	!
2G#\	7	.	8cc#\L	.	8ee\L	.	1r	.	.	1r	.	.	1r	.	.	1r	.	.	1r	.	1r	.
.	.	.	8b\J	.	8dd#\J	.	.	.	.	.	.	.	.	.	.	.	.	.	.	.	.	.
.	.	.	2b\	.	4.dd#\	.	.	.	.	.	.	.	.	.	.	.	.	.	.	.	.	.
2D#\	6	.	.	.	.	.	.	.	.	.	.	.	.	.	.	.	.	.	.	.	.	.
.	.	.	.	.	8ff#\L	.	.	.	.	.	.	.	.	.	.	.	.	.	.	.	.	.
.	.	.	4f#/	.	8dd#\	.	.	.	.	.	.	.	.	.	.	.	.	.	.	.	.	.
.	.	.	.	.	8b\J	.	.	.	.	.	.	.	.	.	.	.	.	.	.	.	.	.
=34	=34	=34	=34	=34	=34	=34	=34	=34	=34	=34	=34	=34	=34	=34	=34	=34	=34	=34	=34	=34	=34	=34
!	!	!	!	!	!LO:LB:g=original	!	!	!	!	!	!	!	!	!	!	!	!	!	!	!	!	!
2E\	6	.	4g#/	.	8b\L	.	1r	.	.	1r	.	.	1r	.	.	1r	.	.	1r	.	1r	.
.	.	.	.	.	8cc#\	.	.	.	.	.	.	.	.	.	.	.	.	.	.	.	.	.
.	.	.	4g#/	.	8ee\	.	.	.	.	.	.	.	.	.	.	.	.	.	.	.	.	.
.	.	.	.	.	8cc#\J	.	.	.	.	.	.	.	.	.	.	.	.	.	.	.	.	.
4F#\	6 4	.	4d#/	.	8cc#\L	.	.	.	.	.	.	.	.	.	.	.	.	.	.	.	.	.
.	.	.	.	.	8b\	.	.	.	.	.	.	.	.	.	.	.	.	.	.	.	.	.
4FF#/	5 #	.	4c#/	.	8b\	.	.	.	.	.	.	.	.	.	.	.	.	.	.	.	.	.
.	.	.	.	.	8a#X\J	.	.	.	.	.	.	.	.	.	.	.	.	.	.	.	.	.
=35	=35	=35	=35	=35	=35	=35	=35	=35	=35	=35	=35	=35	=35	=35	=35	=35	=35	=35	=35	=35	=35	=35
!	!	!	!	!	!	!	!	!	!	!	!	!	!	!	!	!LO:TX:a:i:t=Solo:mod=	!	!	!	!	!	!
!	!	!	!	!	!	!	!	!	!	!	!	!	!LO:TX:i:t=Solo:mod=	!	!	!	!	!	!	!	!	!
4BB/	.	.	4d#/	.	4b\	.	1r	.	.	1r	.	.	2r	.	.	2r	.	.	1r	.	1r	.
4BB/	.	.	4r	.	4r	.	.	.	.	.	.	.	.	.	.	.	.	.	.	.	.	.
2r	.	.	8b\L	.	8dd#\L	.	.	.	.	.	.	.	8b\L	Quo-	.	8dd#\L	Quo-	.	.	.	.	.
.	.	.	8a#X\	.	8cc#\	.	.	.	.	.	.	.	8a#X\J	.	.	8cc#\J	.	.	.	.	.	.
.	.	.	8b\	.	8dd#\	.	.	.	.	.	.	.	8b\L	-ni-	.	8dd#\L	-ni-	.	.	.	.	.
.	.	.	8cc#\J	.	8ee\J	.	.	.	.	.	.	.	8cc#\J	.	.	8ee\J	.	.	.	.	.	.
=36	=36	=36	=36	=36	=36	=36	=36	=36	=36	=36	=36	=36	=36	=36	=36	=36	=36	=36	=36	=36	=36	=36
!	!	!	!	!	!	!	!	!	!	!	!	!	!	!	!	!LO:LB:g=original	!	!	!	!	!	!
4r	.	.	2dd#\	.	2ff#\	.	1r	.	.	1r	.	.	2dd#\	-am	.	2ff#\	-am	.	1r	.	1r	.
4B\	.	.	.	.	.	.	.	.	.	.	.	.	.	.	.	.	.	.	.	.	.	.
!	!	!	!	!	!	!	!	!	!	!	!	!	!	!LO:MO:mod=con-	!	!	!LO:MO:mod=con-	!	!	!	!	!
4BB/	.	.	8ee\L	.	8gg#\L	.	.	.	.	.	.	.	8ee\L	Con-	.	8gg#\L	Con-	.	.	.	.	.
.	.	.	8dd#\	.	8ff#\	.	.	.	.	.	.	.	8dd#\J	.	.	8ff#\J	.	.	.	.	.	.
4B\	.	.	8cc#\	.	8ee\	.	.	.	.	.	.	.	8cc#\L	-fir-	.	8ee\L	-fir-	.	.	.	.	.
.	.	.	8b\J	.	8dd#\J	.	.	.	.	.	.	.	8b\J	.	.	8dd#\J	.	.	.	.	.	.
=37	=37	=37	=37	=37	=37	=37	=37	=37	=37	=37	=37	=37	=37	=37	=37	=37	=37	=37	=37	=37	=37	=37
4F#\	.	.	4b/	.	4dd#\	.	1r	.	.	1r	.	.	4b\	-ma-	.	4dd#\	-ma-	.	1r	.	1r	.
!	!	!	!LO:SIC:s=4a#	!	!	!	!	!	!	!	!	!	!	!	!	!	!	!	!	!	!	!
4FF#/	.	.	4a/	.	4cc#\	.	.	.	.	.	.	.	4a#X\	-ta	.	4cc#\	-ta	.	.	.	.	.
!	!	!	!LO:SIC:s=8a#L	!	!	!	!	!	!	!	!	!	!	!LO:MO:mod=quo-	!	!	!LO:MO:mod=quo-	!	!	!	!	!
2r	.	.	8a/L	.	8cc#\L	.	.	.	.	.	.	.	8a#\L	Quo-	.	8cc#\L	Quo-	.	.	.	.	.
.	.	.	8g#/	.	8b\	.	.	.	.	.	.	.	8g#\J	.	.	8b\J	.	.	.	.	.	.
!	!	!	!LO:SIC:s=8a#	!	!	!	!	!	!	!	!	!	!	!	!	!	!	!	!	!	!	!
.	.	.	8a/	.	8cc#\	.	.	.	.	.	.	.	8a#\L	-ni-	.	8cc#\L	-ni-	.	.	.	.	.
.	.	.	8b/J	.	8dd#\J	.	.	.	.	.	.	.	8b\J	.	.	8dd#\J	.	.	.	.	.	.
=38	=38	=38	=38	=38	=38	=38	=38	=38	=38	=38	=38	=38	=38	=38	=38	=38	=38	=38	=38	=38	=38	=38
!	!	!	!	!	!	!	!	!	!	!	!	!	!LO:LB:g=original	!	!	!	!	!	!	!	!	!
4r	.	.	2cc#\	.	2ee\	.	1r	.	.	1r	.	.	2cc#\	-am	.	2ee\	-am	.	1r	.	1r	.
4F#\	7_ #_	.	.	.	.	.	.	.	.	.	.	.	.	.	.	.	.	.	.	.	.	.
!	!	!	!	!	!	!	!	!	!	!	!	!	!	!LO:MO:mod=con-	!	!	!LO:MO:mod=con-	!	!	!	!	!
4FF#/	x x	.	8dd#\L	.	8ff#\L	.	.	.	.	.	.	.	8dd#\L	Con-	.	8ff#\L	Con-	.	.	.	.	.
.	.	.	8cc#\	.	8ee\	.	.	.	.	.	.	.	8cc#\J	.	.	8ee\J	.	.	.	.	.	.
4F#\	x x	.	8b\	.	8dd#\	.	.	.	.	.	.	.	8b\L	-fir-	.	8dd#\L	-fir-	.	.	.	.	.
.	.	.	8a#X\J	.	8cc#\J	.	.	.	.	.	.	.	8a#X\J	.	.	8cc#\J	.	.	.	.	.	.
=39	=39	=39	=39	=39	=39	=39	=39	=39	=39	=39	=39	=39	=39	=39	=39	=39	=39	=39	=39	=39	=39	=39
4B\	3	.	8cc#\L	.	8ee\L	.	1r	.	.	1r	.	.	8cc#\L	-ma-	.	8ee\L	-ma-	.	1r	.	1r	.
.	.	.	8b\J	.	8dd#\J	.	.	.	.	.	.	.	8b\J	.	.	8dd#\J	.	.	.	.	.	.
4BB/	.	.	4b\	.	4dd#\	.	.	.	.	.	.	.	4b\	-ta	.	4dd#\	-ta	.	.	.	.	.
4B\	.	.	4f#/	.	8dd#\L	.	.	.	.	.	.	.	2r	.	.	8dd#\L	est	.	.	.	.	.
.	.	.	.	.	8cc#\	.	.	.	.	.	.	.	.	.	.	8cc#\J	.	.	.	.	.	.
!	!	!	!	!	!	!	!	!	!	!	!	!	!	!	!	!	!LO:MO:mod=su-	!	!	!	!	!
4r	.	.	4r	.	8dd#\	.	.	.	.	.	.	.	.	.	.	8dd#\L	Su-	.	.	.	.	.
.	.	.	.	.	8ee#X\J	.	.	.	.	.	.	.	.	.	.	8ee#X\J	.	.	.	.	.	.
=40	=40	=40	=40	=40	=40	=40	=40	=40	=40	=40	=40	=40	=40	=40	=40	=40	=40	=40	=40	=40	=40	=40
!LO:LB:g=original	!	!	!	!	!	!	!	!	!	!	!	!	!	!LO:MO:mod=su-	!	!LO:LB:g=original	!	!	!	!	!	!
2A#X\	6 3	.	2cc#\	.	8ff#\L	.	1r	.	.	1r	.	.	4cc#\	Su-	.	8ff#\L	-per	.	1r	.	1r	.
.	.	.	.	.	8ee#X\	.	.	.	.	.	.	.	.	.	.	8ee#X\J	.	.	.	.	.	.
.	.	.	.	.	8ff#\	.	.	.	.	.	.	.	4cc#\	-per	.	8ff#\L	nos	.	.	.	.	.
.	.	.	.	.	8een\J	.	.	.	.	.	.	.	.	.	.	8een\J	.	.	.	.	.	.
!	!	!	!	!	!LO:LB:g=original	!	!	!	!	!	!	!	!	!	!	!	!	!	!	!	!	!
4B\	.	.	4b\	.	8dd#\L	.	.	.	.	.	.	.	4b\	nos	.	8dd#\L	mi-	.	.	.	.	.
.	.	.	.	.	8cc#\	.	.	.	.	.	.	.	.	.	.	8cc#\J	.	.	.	.	.	.
4r	.	.	4r	.	8dd#\	.	.	.	.	.	.	.	4r	.	.	8dd#\L	-ſe-	.	.	.	.	.
.	.	.	.	.	8ee#X\J	.	.	.	.	.	.	.	.	.	.	8ee#X\J	.	.	.	.	.	.
=41	=41	=41	=41	=41	=41	=41	=41	=41	=41	=41	=41	=41	=41	=41	=41	=41	=41	=41	=41	=41	=41	=41
*	*	*	*	*	*	*	*	*	*	*	*	*	*	*ij	*	*	*	*	*	*	*	*
!	!	!	!LO:LB:g=original	!	!	!	!	!	!	!	!	!	!	!LO:MO:mod=su-	!	!	!	!	!	!	!	!
2A#X\	6 3	.	2cc#\	.	8ff#\L	.	1r	.	.	1r	.	.	4cc#\	Su-	.	8ff#\L	-ri-	.	1r	.	1r	.
.	.	.	.	.	8ee#X\	.	.	.	.	.	.	.	.	.	.	8ee#X\J	.	.	.	.	.	.
.	.	.	.	.	8ff#\	.	.	.	.	.	.	.	4cc#\	-per	.	8ff#\L	.	.	.	.	.	.
.	.	.	.	.	8een\J	.	.	.	.	.	.	.	.	.	.	8een\J	.	.	.	.	.	.
4B\	.	.	4b\	.	8dd#\L	.	.	.	.	.	.	.	4b\	nos	.	8dd#\L	-cor-	.	.	.	.	.
*	*	*	*	*	*	*	*	*	*	*	*	*	*	*Xij	*	*	*	*	*	*	*	*
.	.	.	.	.	8cc#\	.	.	.	.	.	.	.	.	.	.	8cc#\J	.	.	.	.	.	.
4r	.	.	4r	.	8dd#\	.	.	.	.	.	.	.	4r	.	.	8dd#\L	-di-	.	.	.	.	.
.	.	.	.	.	8ee#X\J	.	.	.	.	.	.	.	.	.	.	8ee#X\J	.	.	.	.	.	.
=42	=42	=42	=42	=42	=42	=42	=42	=42	=42	=42	=42	=42	=42	=42	=42	=42	=42	=42	=42	=42	=42	=42
1BB	.	.	4.dd#\	.	4ff#\	.	1r	.	.	1r	.	.	2dd#\	mi-	.	4ff#\	-a	.	1r	.	1r	.
.	.	.	.	.	8bb\L	.	.	.	.	.	.	.	.	.	.	8bb\L	mi-	.	.	.	.	.
.	.	.	8ff#\	.	8aa\J	.	.	.	.	.	.	.	.	.	.	8aa\J	.	.	.	.	.	.
.	.	.	8ee\L	.	8gg#\L	.	.	.	.	.	.	.	8ee\L	-ſe-	.	8gg#\L	-ſe-	.	.	.	.	.
.	.	.	8dd#\	.	8ff#\	.	.	.	.	.	.	.	8dd#\J	.	.	8ff#\J	.	.	.	.	.	.
.	.	.	8cc#\	.	8een\	.	.	.	.	.	.	.	8cc#\L	-ri	.	8ee\L	-ri-	.	.	.	.	.
.	.	.	8b\J	.	8dd#\J	.	.	.	.	.	.	.	8b\J	.	.	8dd#\J	.	.	.	.	.	.
=43	=43	=43	=43	=43	=43	=43	=43	=43	=43	=43	=43	=43	=43	=43	=43	=43	=43	=43	=43	=43	=43	=43
!	!	!	!	!	!	!	!	!	!	!	!	!	!LO:LB:g=original	!	!	!	!	!	!	!	!	!
1E	6	.	8dd#\L	.	8ff#\L	.	1r	.	.	1r	.	.	8dd#\L	cor-	.	8ff#\L	-cor-	.	1r	.	1r	.
.	.	.	8cc#\	.	8ee\	.	.	.	.	.	.	.	8cc#\	.	.	8ee\	.	.	.	.	.	.
.	.	.	8b\	.	8dd#\	.	.	.	.	.	.	.	8b\	.	.	8dd#\	.	.	.	.	.	.
.	.	.	8cc#\J	.	8ee\J	.	.	.	.	.	.	.	8cc#\J	.	.	8ee\J	.	.	.	.	.	.
.	.	.	8ee\L	.	8gg#\L	.	.	.	.	.	.	.	4.ee\	.	.	4.gg#\	.	.	.	.	.	.
.	.	.	8dd#\	.	8ff#\	.	.	.	.	.	.	.	.	.	.	.	.	.	.	.	.	.
.	.	.	8ee\	.	8gg#\	.	.	.	.	.	.	.	.	.	.	.	.	.	.	.	.	.
.	.	.	8cc#\J	.	8ee\J	.	.	.	.	.	.	.	8cc#\	.	.	8ee\	.	.	.	.	.	.
=44	=44	=44	=44	=44	=44	=44	=44	=44	=44	=44	=44	=44	=44	=44	=44	=44	=44	=44	=44	=44	=44	=44
!	!	!	!	!	!	!	!	!	!	!	!	!	!	!	!	!LO:LB:g=original	!	!	!	!	!	!
2F#\	6 4	.	8cc#\L	.	8ee\L	.	1r	.	.	1r	.	.	8cc#\L	-di-	.	8ee\L	-di-	.	1r	.	1r	.
.	.	.	8b\	.	8dd#\	.	.	.	.	.	.	.	8b\J	.	.	8dd#\J	.	.	.	.	.	.
.	.	.	8dd#\	.	8ff#\	.	.	.	.	.	.	.	8dd#\L	-a	.	8ff#\L	-a	.	.	.	.	.
.	.	.	8b\J	.	8dd#\J	.	.	.	.	.	.	.	8b\J	.	.	8dd#\J	.	.	.	.	.	.
!	!	!	!	!	!	!	!	!	!	!	!	!	!	!LO:MO:null:mod=e-	!	!	!	!	!	!	!	!
2FF#/	5 #	.	8dd#\L	.	8ff#\L	.	.	.	.	.	.	.	8dd#\L	.	.	8ff#\L	e-	.	.	.	.	.
.	.	.	8cc#\	.	8ee\	.	.	.	.	.	.	.	8cc#\	.	.	8ee\	.	.	.	.	.	.
!	!	!	!	!	!	!	!	!	!	!	!	!	!	!LO:MO:mod=.	!	!	!	!	!	!	!	!
.	.	.	8b\	.	8dd#\	.	.	.	.	.	.	.	8b\	e-	.	8dd#\	.	.	.	.	.	.
.	.	.	8a#X\J	.	8cc#\J	.	.	.	.	.	.	.	8a#X\J	.	.	8cc#\J	.	.	.	.	.	.
=45	=45	=45	=45	=45	=45	=45	=45	=45	=45	=45	=45	=45	=45	=45	=45	=45	=45	=45	=45	=45	=45	=45
!	!	!	!	!	!LO:TX:a:i:t=Solo:mod=	!	!	!	!	!	!	!	!	!	!	!	!	!	!	!	!	!
2BB/	.	.	2b\	.	4dd#\	.	1r	.	.	1r	.	.	2b\	-jus	.	2dd#\	-jus	.	1r	.	1r	.
.	.	.	.	.	8dd#\L	.	.	.	.	.	.	.	.	.	.	.	.	.	.	.	.	.
.	.	.	.	.	8ee\J	.	.	.	.	.	.	.	.	.	.	.	.	.	.	.	.	.
4r	.	.	4r	.	8ff#\L	.	.	.	.	.	.	.	2r	.	.	2r	.	.	.	.	.	.
.	.	.	.	.	8ee\	.	.	.	.	.	.	.	.	.	.	.	.	.	.	.	.	.
4B\	.	.	4f#/	.	8ff#\	.	.	.	.	.	.	.	.	.	.	.	.	.	.	.	.	.
.	.	.	.	.	8dd#\J	.	.	.	.	.	.	.	.	.	.	.	.	.	.	.	.	.
=46	=46	=46	=46	=46	=46	=46	=46	=46	=46	=46	=46	=46	=46	=46	=46	=46	=46	=46	=46	=46	=46	=46
!	!	!	!	!	!LO:LB:g=original	!	!	!	!	!	!	!	!	!	!	!LO:TX:a:i:t=2:mod=	!	!	!	!	!	!
2A#X\	6 5	.	4f#/	.	8cc#\L	.	1r	.	.	1r	.	.	1r	.	.	1r	.	.	1r	.	1r	.
.	.	.	.	.	8dd#\	.	.	.	.	.	.	.	.	.	.	.	.	.	.	.	.	.
.	.	.	4cc#\	.	8ee\	.	.	.	.	.	.	.	.	.	.	.	.	.	.	.	.	.
.	.	.	.	.	8ff#\J	.	.	.	.	.	.	.	.	.	.	.	.	.	.	.	.	.
.	.	.	.	.	8qqee/	.	.	.	.	.	.	.	.	.	.	.	.	.	.	.	.	.
2B\	.	.	4b\	.	4dd#\	.	.	.	.	.	.	.	.	.	.	.	.	.	.	.	.	.
.	.	.	4f#/	.	8cc#\L	.	.	.	.	.	.	.	.	.	.	.	.	.	.	.	.	.
.	.	.	.	.	8b\J	.	.	.	.	.	.	.	.	.	.	.	.	.	.	.	.	.
=47	=47	=47	=47	=47	=47	=47	=47	=47	=47	=47	=47	=47	=47	=47	=47	=47	=47	=47	=47	=47	=47	=47
2E\	6	.	2g#/	.	8cc#\L	.	1r	.	.	1r	.	.	1r	.	.	1r	.	.	4r	.	4r	.
.	.	.	.	.	8dd#\	.	.	.	.	.	.	.	.	.	.	.	.	.	.	.	.	.
.	.	.	.	.	8ee\	.	.	.	.	.	.	.	.	.	.	.	.	.	4ee\	.	4gg#\	.
.	.	.	.	.	8cc#\J	.	.	.	.	.	.	.	.	.	.	.	.	.	.	.	.	.
4F#\	6 4	.	4d#/	.	8cc#\L	.	.	.	.	.	.	.	.	.	.	.	.	.	4ff#\	.	4ff#\	.
.	.	.	.	.	8b\	.	.	.	.	.	.	.	.	.	.	.	.	.	.	.	.	.
4FF#/	5 #	.	4c#/	.	8b\	.	.	.	.	.	.	.	.	.	.	.	.	.	4ff#\	.	4ff#\	.
.	.	.	.	.	8a#X\J	.	.	.	.	.	.	.	.	.	.	.	.	.	.	.	.	.
=48	=48	=48	=48	=48	=48	=48	=48	=48	=48	=48	=48	=48	=48	=48	=48	=48	=48	=48	=48	=48	=48	=48
!!LO:TX:a:t= :mod=Tutti
!	!	!LO:MO:mod=!LO&colon;DY&colon;ed=brack	!	!LO:MO:mod=!LO&colon;DY&colon;ed=brack	!	!	!	!	!	!	!	!	!	!	!	!	!	!	!	!	!	!
!	!	!null	!	!null	!	!	!	!	!	!	!	!	!	!	!	!	!	!	!	!	!	!
!	!	!LO:MO:null:mod=f	!	!LO:MO:null:mod=f	!	!LO:MO:null:mod=f	!	!LO:MO:mod=et	!	!LO:PB:g=original	!	!	!	!	!	!	!	!	!	!	!	!
4BB/	.	.	4d#/	.	4.b\	.	4B\	&	.	4d#\	et	.	4b\	et	.	4ff#\	et	.	4b/	.	4ff#\	.
!LO:TX:a:i:t=tutti:mod=	!	!	!	!	!	!	!	!LO:MO:mod=ve-	!	!	!LO:MO:mod=ve-	!	!	!LO:MO:mod=ve-	!	!	!LO:MO:mod=ve-	!	!	!	!	!
4B\	.	.	4d#/	.	.	.	4B\	Ve-	.	4d#\	Ve-	.	4b\	Ve-	.	4ff#\	Ve-	.	8b/L	.	8ff#\L	.
.	.	.	.	.	16dd#\LL	.	.	.	.	.	.	.	.	.	.	.	.	.	8b/J	.	8ff#\J	.
!	!	!	!	!	!	!LO:DY:a:t=for:mod= 	!	!	!	!	!	!	!	!	!	!	!	!	!	!	!	!
.	.	.	.	.	16ee\JJ	f	.	.	.	.	.	.	.	.	.	.	.	.	.	.	.	.
4B\	.	.	4d#/	.	8ff#\L	.	4B\	-ri-	.	4d#\	-ri-	.	4b\	-ri-	.	4ff#\	-ri-	.	4b/	.	4ff#\	.
.	.	.	.	.	8dd#\	.	.	.	.	.	.	.	.	.	.	.	.	.	.	.	.	.
4B\	.	.	4d#/	.	8ff#\	.	4B\	-taſ	.	4d#\	-tas	.	4b\	-taſ	.	4ff#\	-tas	.	4r	.	4r	.
.	.	.	.	.	8dd#\J	.	.	.	.	.	.	.	.	.	.	.	.	.	.	.	.	.
=49	=49	=49	=49	=49	=49	=49	=49	=49	=49	=49	=49	=49	=49	=49	=49	=49	=49	=49	=49	=49	=49	=49
!	!	!	!	!	!	!	!	!	!	!LO:MO:mod=4.d#	!	!	!LO:PB:g=original	!	!	!	!	!	!	!	!	!
4B#X\	6 5	.	4g#/	.	4.ff#\	.	4.B#X\	Do-	.	2d#\	Do-	.	4.g#\	Do-	.	4.ff#\	Do-	.	4g#/	.	4gg#\	.
4B#\	.	.	4g#/	.	.	.	.	.	.	.	.	.	.	.	.	.	.	.	8g#/L	.	8gg#\L	.
!	!	!	!	!	!	!	!	!	!	!LO:MO:null:mod=8d#	!LO:MO:null:mod=-mi-	!	!	!	!	!	!	!	!	!	!	!
.	.	.	.	.	16dd#\LL	.	8B#\	-mi-	.	.	.	.	8g#\	-mi-	.	8ff#\	-mi-	.	8g#/J	.	8gg#\J	.
.	.	.	.	.	16ee\JJ	.	.	.	.	.	.	.	.	.	.	.	.	.	.	.	.	.
!	!	!	!	!	!	!	!	!	!	!LO:MO:mod=2d#	!LO:MO:mod=-ni	!	!	!	!	!	!	!	!	!	!	!
4B#\	.	.	4g#/	.	8ff#\L	.	2B#\	-ni	.	4d#\	-mi-	.	2g#\	-ni	.	2ff#\	-ni	.	4g#/	.	4gg#\	.
.	.	.	.	.	8dd#\	.	.	.	.	.	.	.	.	.	.	.	.	.	.	.	.	.
!	!	!	!	!	!	!	!	!	!	!LO:MO:mod=.	!LO:MO:mod=.	!	!	!	!	!	!	!	!	!	!	!
4B#\	.	.	4g#/	.	8ff#\	.	.	.	.	4d#\	-ni	.	.	.	.	.	.	.	4r	.	4r	.
.	.	.	.	.	8dd#\J	.	.	.	.	.	.	.	.	.	.	.	.	.	.	.	.	.
=50	=50	=50	=50	=50	=50	=50	=50	=50	=50	=50	=50	=50	=50	=50	=50	=50	=50	=50	=50	=50	=50	=50
!	!	!	!	!	!	!	!	!	!	!	!	!	!	!	!	!LO:LB:g=original	!	!	!	!	!	!
!	!	!	!LO:LB:g=original	!	!	!	!	!	!	!	!	!	!	!	!	!	!	!	!	!	!	!
4c#\	.	.	4g#/	.	8ff#\L	.	4c#\	ma-	.	4c#\	ma-	.	4g#\	ma-	.	4ee\	ma-	.	1r	.	1r	.
.	.	.	.	.	8ee\	.	.	.	.	.	.	.	.	.	.	.	.	.	.	.	.	.
4c#\	.	.	4g#/	.	8dd#\	.	4c#\	-net	.	4c#\	-net	.	4g#\	-net	.	4ee\	-net	.	.	.	.	.
.	.	.	.	.	8ee\J	.	.	.	.	.	.	.	.	.	.	.	.	.	.	.	.	.
4F#\	6	.	8ee\L	.	8gg#\L	.	4F#\	in	.	4d#\	in	.	4a\	in	.	4ff#\	in	.	.	.	.	.
.	.	.	8dd#\	.	8ff#\	.	.	.	.	.	.	.	.	.	.	.	.	.	.	.	.	.
!	!	!	!	!	!	!	!	!LO:MO:mod=ae-	!	!	!LO:MO:mod=ae-	!	!	!	!	!	!LO:MO:mod=ae-	!	!	!	!	!
4F##X\	5	.	8dd#\	.	8ff#\	.	4F##X\	e-	.	4c#\	&-	.	4a#X\	ae-	.	4ee\	e-	.	.	.	.	.
.	.	.	8cc#\J	.	8ee\J	.	.	.	.	.	.	.	.	.	.	.	.	.	.	.	.	.
=51	=51	=51	=51	=51	=51	=51	=51	=51	=51	=51	=51	=51	=51	=51	=51	=51	=51	=51	=51	=51	=51	=51
4G#\	6_ 4_	.	4.cc#\	.	4.ee\	.	2G#\	-ter-	.	2c#\	-ter-	.	2g#\	-ter-	.	2ee\	-ter-	.	4g#/	.	4gg#\	.
4G#\	x x	.	.	.	.	.	.	.	.	.	.	.	.	.	.	.	.	.	8g#/L	.	8gg#\L	.
!	!	!	!LO:TX:a:t=P:problem=♭ above	!	!	!	!	!	!	!	!	!	!	!	!	!	!	!	!	!	!	!
.	.	.	16b#X\LL	.	16dd#\LL	.	.	.	.	.	.	.	.	.	.	.	.	.	8g#/J	.	8gg#\J	.
.	.	.	16cc#\JJ	.	16ee\JJ	.	.	.	.	.	.	.	.	.	.	.	.	.	.	.	.	.
!LO:LB:g=original	!	!	!	!	!LO:LB:g=original	!	!	!	!	!	!	!	!	!	!	!	!	!	!	!	!	!
4GG#/	5 #	.	8b#\L	.	8dd#\L	.	4G#\	-num	.	4B#X\	-num	.	4g#\	-num	.	4dd#\	-num	.	4g#/	.	4gg#\	.
.	.	.	8gg#\	.	8gg#\	.	.	.	.	.	.	.	.	.	.	.	.	.	.	.	.	.
4r	.	.	8dd#\	.	8dd#\	.	4r	.	.	4r	.	.	4r	.	.	4r	.	.	4r	.	4r	.
.	.	.	8b#\J	.	8b#X\J	.	.	.	.	.	.	.	.	.	.	.	.	.	.	.	.	.
=52	=52	=52	=52	=52	=52	=52	=52	=52	=52	=52	=52	=52	=52	=52	=52	=52	=52	=52	=52	=52	=52	=52
!	!	!	!	!	!	!	!	!	!	!	!	!	!	!	!	!	!	!	!	!	!LO:TX:a:i:t=6.:mod=	!
!	!	!	!	!	!	!	!	!	!	!	!	!	!	!	!	!	!	!	!	!	!LO:LB:g=original	!
1B#X	6	.	4g#/	.	4g#/	.	1B#X	ma-	.	1d#	ma-	.	1g#	ma-	.	4.gg#\	ma-	.	1r	.	1r	.
.	.	.	8gg#\L	.	8gg#\L	.	.	.	.	.	.	.	.	.	.	.	.	.	.	.	.	.
.	.	.	8aa\J	.	8aa\J	.	.	.	.	.	.	.	.	.	.	8aa\	.	.	.	.	.	.
.	r5#	.	4gg#\	.	4gg#\	.	.	.	.	.	.	.	.	.	.	4gg#\	.	.	.	.	.	.
.	.	.	4ff#\	.	4ff#\	.	.	.	.	.	.	.	.	.	.	4ff#\	.	.	.	.	.	.
=53	=53	=53	=53	=53	=53	=53	=53	=53	=53	=53	=53	=53	=53	=53	=53	=53	=53	=53	=53	=53	=53	=53
!	!	!	!	!	!	!	!LO:PB:g=original	!	!	!	!	!	!	!	!	!	!	!	!	!	!	!
4c#\	#_	.	1ee#X	.	1ee#X	.	4c#\	-net	.	1c#	-net	.	1g#	-net	.	1ee#X	.	.	1r	.	1r	.
8c#\L	x x	.	.	.	.	.	8c#\L	ma-	.	.	.	.	.	.	.	.	.	.	.	.	.	.
8d#\J	x x	.	.	.	.	.	8d#\J	.	.	.	.	.	.	.	.	.	.	.	.	.	.	.
4c#\	x x	.	.	.	.	.	4c#\	.	.	.	.	.	.	.	.	.	.	.	.	.	.	.
4Bn\	x x	.	.	.	.	.	4Bn\	.	.	.	.	.	.	.	.	.	.	.	.	.	.	.
=54	=54	=54	=54	=54	=54	=54	=54	=54	=54	=54	=54	=54	=54	=54	=54	=54	=54	=54	=54	=54	=54	=54
*	*	*	*	*	*	*	*	*	*	*	*	*	*	*ij	*	*	*	*	*	*	*	*
1A#X	6	.	4ff#\	.	4ff#\	.	1A#X	.	.	1c#	ma-	.	1f#	ma-	.	4ff#\	-net	.	1r	.	1r	.
.	.	.	8ff#\L	.	8ff#\L	.	.	.	.	.	.	.	.	.	.	8ff#\L	ma-	.	.	.	.	.
.	.	.	8gg#\J	.	8gg#\J	.	.	.	.	.	.	.	.	.	.	8gg#\J	.	.	.	.	.	.
.	r5n	.	4ff#\	.	4ff#\	.	.	.	.	.	.	.	.	.	.	4ff#\	.	.	.	.	.	.
!	!	!	!	!	!	!	!	!	!	!	!	!	!	!	!	!LO:TX:b:i:t=Verte:mod=	!	!	!	!	!	!
.	.	.	4een\	.	4een\	.	.	.	.	.	.	.	.	.	.	4een\	.	.	.	.	.	.
=55	=55	=55	=55	=55	=55	=55	=55	=55	=55	=55	=55	=55	=55	=55	=55	=55	=55	=55	=55	=55	=55	=55
!	!	!	!	!	!	!	!	!	!	!	!	!	!	!	!	!LO:PB:g=original	!	!	!	!	!	!
!	!	!	!	!	!	!	!	!	!	!LO:LB:g=original	!	!	!	!	!	!	!	!	!	!	!	!
4B\	3	.	1dd#	.	1dd#	.	4B\	net	.	1B	-net	.	1f#	-net	.	1dd#	.	.	1r	.	1r	.
*	*	*	*	*	*	*	*	*	*	*	*	*	*	*Xij	*	*	*	*	*	*	*	*
8B\L	.	.	.	.	.	.	8B\L	ma-	.	.	.	.	.	.	.	.	.	.	.	.	.	.
8c#\J	.	.	.	.	.	.	8c#\J	.	.	.	.	.	.	.	.	.	.	.	.	.	.	.
4B\	.	.	.	.	.	.	4B\	.	.	.	.	.	.	.	.	.	.	.	.	.	.	.
4An\	.	.	.	.	.	.	4An\	.	.	.	.	.	.	.	.	.	.	.	.	.	.	.
=56	=56	=56	=56	=56	=56	=56	=56	=56	=56	=56	=56	=56	=56	=56	=56	=56	=56	=56	=56	=56	=56	=56
!	!	!	!	!	!	!	!	!	!	!LO:TX:t=P:problem:brak taktu nr 56	!	!	!	!	!	!	!	!	!	!	!	!
!	!	!	!	!	!	!	!	!	!	!LO:MO:mod=1B@	!LO:MO:null:mod=ma-	!	!	!	!	!	!	!	!	!	!	!
1G#	6	.	4ee\	.	4ee\	.	1G#	.	.	1ryy	.	.	1e	ma-	.	4ee\	-net	.	1r	.	1r	.
.	.	.	8ee\L	.	8ee\L	.	.	.	.	.	.	.	.	.	.	8ee\L	ma-	.	.	.	.	.
.	.	.	8ff#\J	.	8ff#\J	.	.	.	.	.	.	.	.	.	.	8ff#\J	.	.	.	.	.	.
.	r5n	.	4ee\	.	4ee\	.	.	.	.	.	.	.	.	.	.	4ee\	.	.	.	.	.	.
.	.	.	4ddn\	.	4ddn\	.	.	.	.	.	.	.	.	.	.	4ddn\	.	.	.	.	.	.
=57	=57	=57	=57	=57	=57	=57	=57	=57	=57	=57	=57	=57	=57	=57	=57	=57	=57	=57	=57	=57	=57	=57
!	!	!	!	!	!	!	!	!	!	!	!LO:MO:mod=*null:null	!	!	!	!	!	!	!	!	!	!	!
*	*	*	*	*	*	*	*	*	*	*	*ij	*	*	*	*	*	*	*	*	*	*	*
!	!	!	!	!	!	!	!	!	!	!	!LO:MO:mod=.	!	!LO:LB:g=original	!	!	!	!	!	!	!	!	!
4A\	3	.	4cc#\	.	8cc#\L	.	2A\	.	.	2c#\	ma-	.	2e\	.	.	2cc#\	.	.	1r	.	1r	.
.	.	.	.	.	8dd#\	.	.	.	.	.	.	.	.	.	.	.	.	.	.	.	.	.
4A\	.	.	4a/	.	8ee\	.	.	.	.	.	.	.	.	.	.	.	.	.	.	.	.	.
.	.	.	.	.	8cc#\J	.	.	.	.	.	.	.	.	.	.	.	.	.	.	.	.	.
4F#\	6\_ 3_	.	4a/	.	8dd#X\L	.	2F#\	-net	.	2B\	-net	.	2a\	-net	.	2dd#X\	-net	.	.	.	.	.
*	*	*	*	*	*	*	*	*	*	*	*Xij	*	*	*	*	*	*	*	*	*	*	*
.	.	.	.	.	8b\	.	.	.	.	.	.	.	.	.	.	.	.	.	.	.	.	.
4F#\	x x	.	4a/	.	8cc#\	.	.	.	.	.	.	.	.	.	.	.	.	.	.	.	.	.
.	.	.	.	.	8dd#\J	.	.	.	.	.	.	.	.	.	.	.	.	.	.	.	.	.
=58	=58	=58	=58	=58	=58	=58	=58	=58	=58	=58	=58	=58	=58	=58	=58	=58	=58	=58	=58	=58	=58	=58
!	!	!	!	!	!	!	!	!	!	!	!	!	!	!	!	!	!	!	!LO:LB:g=original	!	!	!
4E\	3	.	4g#/	.	8ee\L	.	2E\	in	.	2B\	in	.	2g#\	in	.	2ee\	in	.	4r	.	4r	.
.	.	.	.	.	8ff#\	.	.	.	.	.	.	.	.	.	.	.	.	.	.	.	.	.
4E\	.	.	4g#/	.	8gg#\	.	.	.	.	.	.	.	.	.	.	.	.	.	4ee\	.	4gg#\	.
.	.	.	.	.	8ee\J	.	.	.	.	.	.	.	.	.	.	.	.	.	.	.	.	.
!	!	!	!	!	!	!	!	!	!	!	!	!	!	!	!	!	!LO:MO:mod=ae-	!	!	!	!	!
4G#\	6_ 3_	.	4b/	.	8dd#\L	.	2G#\	ae-	.	2B\	ae-	.	2b\	ae-	.	2ee\	e-	.	4ee\	.	4gg#\	.
.	.	.	.	.	8ee\	.	.	.	.	.	.	.	.	.	.	.	.	.	.	.	.	.
4G#\	x x	.	4b/	.	8b\	.	.	.	.	.	.	.	.	.	.	.	.	.	4ee\	.	4gg#\	.
.	.	.	.	.	8ddn\J	.	.	.	.	.	.	.	.	.	.	.	.	.	.	.	.	.
=59	=59	=59	=59	=59	=59	=59	=59	=59	=59	=59	=59	=59	=59	=59	=59	=59	=59	=59	=59	=59	=59	=59
!	!	!	!	!	!	!	!	!	!	!	!	!	!	!	!	!	!	!	!LO:MO:mod=*null:null	!	!	!
*	*	*	*	*	*	*	*	*	*	*	*	*	*	*	*	*	*	*	*2\right	*	*	*
!	!	!	!	!	!	!	!LO:LB:g=original	!	!	!	!	!	!	!	!	!	!	!	!	!	!	!
!	!	!	!	!	!LO:LB:g=original	!	!	!	!	!	!	!	!	!	!	!	!	!	!	!	!	!
4A\	6_	.	4a/	.	8cc#\L	.	2A\	-ter-	.	2c#\	-ter-	.	2a\	-ter-	.	2ff#\	-ter-	.	2ff#\	.	2aa\	.
.	.	.	.	.	8ff#\	.	.	.	.	.	.	.	.	.	.	.	.	.	.	.	.	.
4A\	x	.	4a/	.	8aa\	.	.	.	.	.	.	.	.	.	.	.	.	.	.	.	.	.
.	.	.	.	.	8ff#\J	.	.	.	.	.	.	.	.	.	.	.	.	.	.	.	.	.
4B\	6 4	.	4g#/	.	8ff#\L	.	4B\	.	.	2B\	.	.	4g#\	.	.	4ee\	.	.	4ee\	.	4gg#\	.
.	.	.	.	.	8ee\	.	.	.	.	.	.	.	.	.	.	.	.	.	.	.	.	.
!	!	!	!	!	!	!	!	!	!	!	!	!	!	!	!	!	!	!	!	!	!LO:TX:a:i:t=d:mod=	!
4BB/	5 #	.	4f#/	.	8ee\	.	4BB/	.	.	.	.	.	4f#\	.	.	4dd#\	.	.	4b/	.	4ff#\	.
.	.	.	.	.	8dd#X\J	.	.	.	.	.	.	.	.	.	.	.	.	.	.	.	.	.
=60	=60	=60	=60	=60	=60	=60	=60	=60	=60	=60	=60	=60	=60	=60	=60	=60	=60	=60	=60	=60	=60	=60
!LO:TX:i:t=X:mod=	!	!	!	!	!	!	!	!	!	!	!	!	!	!	!	!	!	!	!	!	!	!
4E\	.	.	4g#/	.	4ee\	.	2E\	-num	.	2B\	-num	.	2g#\	-num	.	2ee\	-num	.	4g#/	.	4ee\	.
4EE/	.	.	4g#/	.	4e/	.	.	.	.	.	.	.	.	.	.	.	.	.	4g#/	.	4ee\	.
!	!	!	!	!	!LO:TX:a:i:t=Solo:mod=	!	!	!	!	!	!	!	!	!	!	!	!	!	!	!	!	!
2r	.	.	4g#/	.	8ee\L	.	2r	.	.	2r	.	.	2r	.	.	2r	.	.	2r	.	2r	.
.	.	.	.	.	8dd#\	.	.	.	.	.	.	.	.	.	.	.	.	.	.	.	.	.
.	.	.	4g#/	.	8cc#\	.	.	.	.	.	.	.	.	.	.	.	.	.	.	.	.	.
.	.	.	.	.	8b\J	.	.	.	.	.	.	.	.	.	.	.	.	.	.	.	.	.
=61	=61	=61	=61	=61	=61	=61	=61	=61	=61	=61	=61	=61	=61	=61	=61	=61	=61	=61	=61	=61	=61	=61
!LO:TX:a:i:t=Solo:mod=	!	!	!	!	!	!	!	!	!	!	!	!	!	!	!	!LO:TX:a:i:t=3:mod=	!	!	!LO:TX:a:i:t=11:mod=	!	!	!
!	!	!	!	!	!	!	!	!	!	!	!	!	!	!	!	!LO:LB:g=original	!	!	!	!	!	!
4r	.	.	4.g#/	.	4.b/	.	1r	.	.	1r	.	.	1r	.	.	1r	.	.	1r	.	1r	.
4E\	.	.	.	.	.	.	.	.	.	.	.	.	.	.	.	.	.	.	.	.	.	.
.	.	.	8e/	.	8g#/	.	.	.	.	.	.	.	.	.	.	.	.	.	.	.	.	.
2B\	.	.	8g#/L	.	8b/L	.	.	.	.	.	.	.	.	.	.	.	.	.	.	.	.	.
.	.	.	8f#/	.	8a/	.	.	.	.	.	.	.	.	.	.	.	.	.	.	.	.	.
.	.	.	8e/	.	8g#/	.	.	.	.	.	.	.	.	.	.	.	.	.	.	.	.	.
.	.	.	8d#/J	.	8f#/J	.	.	.	.	.	.	.	.	.	.	.	.	.	.	.	.	.
=62	=62	=62	=62	=62	=62	=62	=62	=62	=62	=62	=62	=62	=62	=62	=62	=62	=62	=62	=62	=62	=62	=62
!LO:LB:g=original	!	!	!	!	!	!	!	!	!	!	!	!	!	!	!	!	!	!	!	!	!	!
2c#\	.	.	8f#/L	.	8a/L	.	1r	.	.	1r	.	.	1r	.	.	1r	.	.	1r	.	1r	.
.	.	.	8e/J	.	8g#/J	.	.	.	.	.	.	.	.	.	.	.	.	.	.	.	.	.
.	.	.	2e/	.	4.g#/	.	.	.	.	.	.	.	.	.	.	.	.	.	.	.	.	.
2G#\	6	.	.	.	.	.	.	.	.	.	.	.	.	.	.	.	.	.	.	.	.	.
.	.	.	.	.	8b\L	.	.	.	.	.	.	.	.	.	.	.	.	.	.	.	.	.
.	.	.	4b/	.	8dd#\	.	.	.	.	.	.	.	.	.	.	.	.	.	.	.	.	.
.	.	.	.	.	8ee\J	.	.	.	.	.	.	.	.	.	.	.	.	.	.	.	.	.
=63	=63	=63	=63	=63	=63	=63	=63	=63	=63	=63	=63	=63	=63	=63	=63	=63	=63	=63	=63	=63	=63	=63
2A\	6	.	4a/	.	8ddn\L	.	1r	.	.	1r	.	.	1r	.	.	1r	.	.	1r	.	1r	.
.	.	.	.	.	8cc#\	.	.	.	.	.	.	.	.	.	.	.	.	.	.	.	.	.
.	.	.	4a/	.	8aa\	.	.	.	.	.	.	.	.	.	.	.	.	.	.	.	.	.
.	.	.	.	.	8ff#\J	.	.	.	.	.	.	.	.	.	.	.	.	.	.	.	.	.
4B\	6 4	.	4g#/	.	8ff#\L	.	.	.	.	.	.	.	.	.	.	.	.	.	.	.	.	.
.	.	.	.	.	8ee\	.	.	.	.	.	.	.	.	.	.	.	.	.	.	.	.	.
4BB/	5 3	.	4f#/	.	8ee\	.	.	.	.	.	.	.	.	.	.	.	.	.	.	.	.	.
.	.	.	.	.	8dd#X\J	.	.	.	.	.	.	.	.	.	.	.	.	.	.	.	.	.
=64	=64	=64	=64	=64	=64	=64	=64	=64	=64	=64	=64	=64	=64	=64	=64	=64	=64	=64	=64	=64	=64	=64
!	!	!	!	!	!	!	!	!	!	!	!	!	!	!	!	!LO:TX:a:i:t=Solo	!	!	!	!	!	!
4E\	#	.	8g#/L	.	4.b\	.	1r	.	.	1r	.	.	1r	.	.	4.b\	Glo-	.	1r	.	1r	.
.	.	.	8e/	.	.	.	.	.	.	.	.	.	.	.	.	.	.	.	.	.	.	.
4r	.	.	8g#/	.	.	.	.	.	.	.	.	.	.	.	.	.	.	.	.	.	.	.
!	!	!	!	!	!	!	!	!	!	!	!	!	!	!	!	!	!LO:MO:mod=.	!	!	!	!	!
.	.	.	8b/J	.	8g#/	.	.	.	.	.	.	.	.	.	.	8g#\	-ri-	.	.	.	.	.
!	!	!	!	!	!	!	!	!	!	!	!	!	!	!	!	!	!LO:MO:null:mod=-ri-	!	!	!	!	!
4E\	.	.	8g#/L	.	4ee\	.	.	.	.	.	.	.	.	.	.	4ee\	.	.	.	.	.	.
.	.	.	8e/	.	.	.	.	.	.	.	.	.	.	.	.	.	.	.	.	.	.	.
4r	.	.	8g#/	.	4ddn\	.	.	.	.	.	.	.	.	.	.	4ddn\	-a	.	.	.	.	.
.	.	.	8b/J	.	.	.	.	.	.	.	.	.	.	.	.	.	.	.	.	.	.	.
=65	=65	=65	=65	=65	=65	=65	=65	=65	=65	=65	=65	=65	=65	=65	=65	=65	=65	=65	=65	=65	=65	=65
!	!	!	!	!	!LO:LB:g=original	!	!	!	!	!	!	!	!	!	!	!	!LO:MO:mod=Pa-	!	!	!	!	!
4E\	6 4	.	8a/L	.	4.cc#\	.	1r	.	.	1r	.	.	1r	.	.	4.cc#\	pa-	.	1r	.	1r	.
.	.	.	8e/	.	.	.	.	.	.	.	.	.	.	.	.	.	.	.	.	.	.	.
4r	.	.	8a/	.	.	.	.	.	.	.	.	.	.	.	.	.	.	.	.	.	.	.
.	.	.	8cc#/J	.	16dd#X\LL	.	.	.	.	.	.	.	.	.	.	16dd#X\LL	.	.	.	.	.	.
.	.	.	.	.	16ee\JJ	.	.	.	.	.	.	.	.	.	.	16ee\JJ	.	.	.	.	.	.
4E\	5 3	.	8g#/L	.	4b\	.	.	.	.	.	.	.	.	.	.	4b\	-tri	.	.	.	.	.
.	.	.	8e/	.	.	.	.	.	.	.	.	.	.	.	.	.	.	.	.	.	.	.
4EE/	.	.	8g#/	.	4r	.	.	.	.	.	.	.	.	.	.	4r	.	.	.	.	.	.
.	.	.	8b/J	.	.	.	.	.	.	.	.	.	.	.	.	.	.	.	.	.	.	.
=66	=66	=66	=66	=66	=66	=66	=66	=66	=66	=66	=66	=66	=66	=66	=66	=66	=66	=66	=66	=66	=66	=66
!	!	!	!LO:TX:t=P:problem=2 takty zapisane powtórką	!	!	!	!	!	!	!	!	!	!	!	!	!	!LO:MO:mod=glo-	!	!	!	!	!
4E\	.	.	8g#/L	.	4.b/	.	1r	.	.	1r	.	.	1r	.	.	4.b\	Glo-	.	1r	.	1r	.
.	.	.	8e/	.	.	.	.	.	.	.	.	.	.	.	.	.	.	.	.	.	.	.
4r	.	.	8g#/	.	.	.	.	.	.	.	.	.	.	.	.	.	.	.	.	.	.	.
.	.	.	8b/J	.	8g#/	.	.	.	.	.	.	.	.	.	.	8g#\	.	.	.	.	.	.
4E\	.	.	8g#/L	.	4ee\	.	.	.	.	.	.	.	.	.	.	4ee\	-ri-	.	.	.	.	.
.	.	.	8e/	.	.	.	.	.	.	.	.	.	.	.	.	.	.	.	.	.	.	.
4r	.	.	8g#/	.	4ddn\	.	.	.	.	.	.	.	.	.	.	4ddn\	-a	.	.	.	.	.
.	.	.	8b/J	.	.	.	.	.	.	.	.	.	.	.	.	.	.	.	.	.	.	.
=67	=67	=67	=67	=67	=67	=67	=67	=67	=67	=67	=67	=67	=67	=67	=67	=67	=67	=67	=67	=67	=67	=67
!	!	!	!	!	!	!	!	!	!	!	!	!	!	!	!	!	!LO:MO:mod=Fi-	!	!	!	!	!
4E\	6 4	.	8a/L	.	4.cc#\	.	1r	.	.	1r	.	.	1r	.	.	4.cc#\	fi-	.	1r	.	1r	.
.	.	.	8e/	.	.	.	.	.	.	.	.	.	.	.	.	.	.	.	.	.	.	.
4r	.	.	8a/	.	.	.	.	.	.	.	.	.	.	.	.	.	.	.	.	.	.	.
.	.	.	8cc#/J	.	16dd#X\LL	.	.	.	.	.	.	.	.	.	.	16dd#X\LL	-li-	.	.	.	.	.
.	.	.	.	.	16ee\JJ	.	.	.	.	.	.	.	.	.	.	16ee\JJ	.	.	.	.	.	.
4E\	.	.	8g#/L	.	4b\	.	.	.	.	.	.	.	.	.	.	4b\	-o	.	.	.	.	.
.	.	.	8e/	.	.	.	.	.	.	.	.	.	.	.	.	.	.	.	.	.	.	.
4EE/	.	.	8g#/	.	4r	.	.	.	.	.	.	.	.	.	.	4r	.	.	.	.	.	.
.	.	.	8b/J	.	.	.	.	.	.	.	.	.	.	.	.	.	.	.	.	.	.	.
=68	=68	=68	=68	=68	=68	=68	=68	=68	=68	=68	=68	=68	=68	=68	=68	=68	=68	=68	=68	=68	=68	=68
!	!	!	!	!	!	!	!	!	!	!	!	!	!	!	!	!LO:LB:g=original	!LO:MO:mod=glo-	!	!	!	!	!
4E\	5 3	.	8g#/L	.	4.ee\	.	1r	.	.	1r	.	.	1r	.	.	4.ee\	Glo-	.	1r	.	1r	.
.	.	.	8e/	.	.	.	.	.	.	.	.	.	.	.	.	.	.	.	.	.	.	.
4r	.	.	8g#/	.	.	.	.	.	.	.	.	.	.	.	.	.	.	.	.	.	.	.
.	.	.	8b/J	.	8ff#\	.	.	.	.	.	.	.	.	.	.	8ff#\	.	.	.	.	.	.
*	*	*	*rep	*	*	*	*	*	*	*	*	*	*	*	*	*	*	*	*	*	*	*
4E\	.	.	8g#/L	.	4ee\	.	.	.	.	.	.	.	.	.	.	4ee\	.	.	.	.	.	.
.	.	.	8e/	.	.	.	.	.	.	.	.	.	.	.	.	.	.	.	.	.	.	.
4r	.	.	8g#/	.	4ddn\	.	.	.	.	.	.	.	.	.	.	4ddn\	.	.	.	.	.	.
.	.	.	8b/J	.	.	.	.	.	.	.	.	.	.	.	.	.	.	.	.	.	.	.
*	*	*	*Xrep	*	*	*	*	*	*	*	*	*	*	*	*	*	*	*	*	*	*	*
=69	=69	=69	=69	=69	=69	=69	=69	=69	=69	=69	=69	=69	=69	=69	=69	=69	=69	=69	=69	=69	=69	=69
4A\	3_	.	8a/L	.	4cc#\	.	1r	.	.	1r	.	.	1r	.	.	4cc#\	.	.	1r	.	1r	.
.	.	.	8e/	.	.	.	.	.	.	.	.	.	.	.	.	.	.	.	.	.	.	.
4r	x x	.	8c#/	.	8cc#\L	.	.	.	.	.	.	.	.	.	.	8cc#\L	-ri-	.	.	.	.	.
.	.	.	8e/J	.	8b\J	.	.	.	.	.	.	.	.	.	.	8b\J	.	.	.	.	.	.
4A\	x x	.	8a/L	.	4cc#\	.	.	.	.	.	.	.	.	.	.	4cc#\	-a	.	.	.	.	.
.	.	.	8e/	.	.	.	.	.	.	.	.	.	.	.	.	.	.	.	.	.	.	.
!	!	!	!	!	!	!	!	!	!	!	!	!	!	!	!	!	!LO:MO:mod=et	!	!	!	!	!
4r	.	.	8a/	.	8dd#X\L	.	.	.	.	.	.	.	.	.	.	8dd#X\L	&	.	.	.	.	.
.	.	.	8cc#/J	.	8ee\J	.	.	.	.	.	.	.	.	.	.	8ee\J	.	.	.	.	.	.
=70	=70	=70	=70	=70	=70	=70	=70	=70	=70	=70	=70	=70	=70	=70	=70	=70	=70	=70	=70	=70	=70	=70
2.A\	6	.	8a/L	.	4.ff#\	.	1r	.	.	1r	.	.	1r	.	.	4.ff#\	Spi-	.	1r	.	1r	.
.	.	.	8cc#/	.	.	.	.	.	.	.	.	.	.	.	.	.	.	.	.	.	.	.
.	.	.	8a/	.	.	.	.	.	.	.	.	.	.	.	.	.	.	.	.	.	.	.
.	.	.	8cc#/J	.	8gg#\	.	.	.	.	.	.	.	.	.	.	8gg#\	-ri-	.	.	.	.	.
.	.	.	8a/L	.	4ff#\	.	.	.	.	.	.	.	.	.	.	4ff#\	-tu-	.	.	.	.	.
.	.	.	8cc#/	.	.	.	.	.	.	.	.	.	.	.	.	.	.	.	.	.	.	.
4A#X\	5	.	8a#X/	.	4ee\	.	.	.	.	.	.	.	.	.	.	4ee\	-i	.	.	.	.	.
.	.	.	8cc#/J	.	.	.	.	.	.	.	.	.	.	.	.	.	.	.	.	.	.	.
=71	=71	=71	=71	=71	=71	=71	=71	=71	=71	=71	=71	=71	=71	=71	=71	=71	=71	=71	=71	=71	=71	=71
!	!	!	!LO:LB:g=original	!	!	!	!	!	!	!	!	!	!	!	!	!	!	!	!	!	!	!
8B\L	6_ 4_	.	4.g#/	.	4.ee\	.	1r	.	.	1r	.	.	1r	.	.	2ee\	San-	.	1r	.	1r	.
8A#X\	x x	.	.	.	.	.	.	.	.	.	.	.	.	.	.	.	.	.	.	.	.	.
8B\	x x	.	.	.	.	.	.	.	.	.	.	.	.	.	.	.	.	.	.	.	.	.
!	!	!	!	!	!LO:SIC:s=16dd#LL	!	!	!	!	!	!	!	!	!	!	!	!	!	!	!	!	!
8A#\J	x x	.	16f#/LL	.	16dd#X\LL	.	.	.	.	.	.	.	.	.	.	.	.	.	.	.	.	.
.	.	.	16g#/JJ	.	16ee\JJ	.	.	.	.	.	.	.	.	.	.	.	.	.	.	.	.	.
8B\L	5 3	.	4f#/	.	4dd#\	.	.	.	.	.	.	.	.	.	.	4dd#\	-cto	.	.	.	.	.
8An\	.	.	.	.	.	.	.	.	.	.	.	.	.	.	.	.	.	.	.	.	.	.
8G#\	.	.	4r	.	4r	.	.	.	.	.	.	.	.	.	.	4r	.	.	.	.	.	.
8F#\J	.	.	.	.	.	.	.	.	.	.	.	.	.	.	.	.	.	.	.	.	.	.
!LO:LB:g=original	!	!	!	!	!LO:LB:g=original	!	!	!	!	!	!	!	!	!	!	!	!	!	!	!	!	!
=72	=72	=72	=72	=72	=72	=72	=72	=72	=72	=72	=72	=72	=72	=72	=72	=72	=72	=72	=72	=72	=72	=72
!LO:MO:mod=*tremolo	!	!	!	!	!	!	!	!	!	!	!	!	!	!	!	!	!	!	!	!	!	!
*null	*	*	*	*	*	*	*	*	*	*	*	*	*	*	*	*	*	*	*	*	*	*
!	!	!	!	!	!	!	!	!LO:MO:mod=si-	!	!	!LO:MO:mod=si-	!	!	!LO:MO:mod=si-	!	!	!LO:MO:mod=si-	!	!	!	!	!
8E\L	.	.	4.g#/	.	4.b\	.	2E\	Si-	.	2e\	Si-	.	2.g#\	Si-	.	2b\	Si-	.	4e/	.	4ee\	.
8E\	.	.	.	.	.	.	.	.	.	.	.	.	.	.	.	.	.	.	.	.	.	.
8E\	.	.	.	.	.	.	.	.	.	.	.	.	.	.	.	.	.	.	8e/L	.	8ee\L	.
8E\J	.	.	16a/LL	.	16cc#\LL	.	.	.	.	.	.	.	.	.	.	.	.	.	8e/J	.	8ee\J	.
.	.	.	16g#/JJ	.	16b\JJ	.	.	.	.	.	.	.	.	.	.	.	.	.	.	.	.	.
8E\L	.	.	4g#/	.	4ee\	.	2E\	-cut	.	2e\	-cut	.	.	.	.	4ee\	.	.	4e/	.	4ee\	.
8E\	.	.	.	.	.	.	.	.	.	.	.	.	.	.	.	.	.	.	.	.	.	.
8E\	r7n 5	.	4b/	.	4ddn\	.	.	.	.	.	.	.	4b\	-cut	.	4ddn\	-cut	.	4r	.	4r	.
8E\J	.	.	.	.	.	.	.	.	.	.	.	.	.	.	.	.	.	.	.	.	.	.
=73	=73	=73	=73	=73	=73	=73	=73	=73	=73	=73	=73	=73	=73	=73	=73	=73	=73	=73	=73	=73	=73	=73
!LO:MO:mod=*null:null	!	!	!	!	!	!	!	!	!	!	!	!	!	!	!	!	!	!	!	!	!	!
*tremolo	*	*	*	*	*	*	*	*	*	*	*	*	*	*	*	*	*	*	*	*	*	*
!	!	!	!	!	!	!	!	!	!	!	!	!	!	!	!	!LO:LB:g=original	!	!	!	!	!	!
!	!	!	!	!	!	!	!	!	!	!LO:LB:g=original	!	!	!	!	!	!	!	!	!	!	!	!
8E\L	6 4	.	4.a/	.	4.cc#\	.	2E\	e-	.	2e\	e-	.	2a\	e-	.	2cc#\	e-	.	4e/	.	4ee\	.
8E\	.	.	.	.	.	.	.	.	.	.	.	.	.	.	.	.	.	.	.	.	.	.
8E\	.	.	.	.	.	.	.	.	.	.	.	.	.	.	.	.	.	.	8e/L	.	8ee\L	.
8E\J	.	.	16b/LL	.	16dd#X\LL	.	.	.	.	.	.	.	.	.	.	.	.	.	8e/J	.	8ee\J	.
.	.	.	16cc#/JJ	.	16ee\JJ	.	.	.	.	.	.	.	.	.	.	.	.	.	.	.	.	.
!	!	!	!	!	!	!	!	!	!	!	!	!	!	!	!	!	!	!	!LO:MO:mod=!null:null	!	!	!
!	!	!	!	!	!	!	!	!	!	!	!	!	!	!	!	!	!	!	!LO:N:vis=8	!	!	!
8E\L	5_ 3_	.	4g#/	.	4b\	.	2E\	-rat	.	2e\	-rat	.	2g#\	-rat	.	2b\	-rat	.	4e/L	.	4ee\	.
8E\	x x	.	.	.	.	.	.	.	.	.	.	.	.	.	.	.	.	.	.	.	.	.
!	!	!	!	!	!	!	!	!	!	!	!	!	!	!	!	!	!	!	!LO:MO:mod=!null:null	!	!	!
!	!	!	!	!	!	!	!	!	!	!	!	!	!	!	!	!	!	!	!LO:N:vis=8	!	!	!
8E\	x x	.	8g#/L	.	4r	.	.	.	.	.	.	.	.	.	.	.	.	.	4e/J	.	4ee\	.
8E\J	x x	.	8b/J	.	.	.	.	.	.	.	.	.	.	.	.	.	.	.	.	.	.	.
=74	=74	=74	=74	=74	=74	=74	=74	=74	=74	=74	=74	=74	=74	=74	=74	=74	=74	=74	=74	=74	=74	=74
!	!	!	!	!	!	!	!	!	!	!	!	!	!	!	!	!	!	!	!LO:TX:t=P:problem=2 takty zapisane powtórką	!	!	!
!	!	!	!	!	!	!	!	!	!	!	!	!	!LO:LB:g=original	!	!	!	!	!	!	!	!	!
8E\L	x x	.	4.g#/	.	4.b\	.	2E\	in	.	2e\	in	.	2.g#\	in	.	2b\	in	.	4e/	.	4ee\	.
8E\	x x	.	.	.	.	.	.	.	.	.	.	.	.	.	.	.	.	.	.	.	.	.
8E\	x x	.	.	.	.	.	.	.	.	.	.	.	.	.	.	.	.	.	8e/L	.	8ee\L	.
8E\J	x x	.	16a/LL	.	16cc#\LL	.	.	.	.	.	.	.	.	.	.	.	.	.	8e/J	.	8ee\J	.
.	.	.	16g#/JJ	.	16b\JJ	.	.	.	.	.	.	.	.	.	.	.	.	.	.	.	.	.
!LO:MO:mod=*null:null	!	!	!	!	!	!	!	!	!	!	!	!	!	!	!	!	!	!	!	!	!	!
*Xtremolo	*	*	*	*	*	*	*	*	*	*	*	*	*	*	*	*	*	*	*	*	*	*
8E\L	.	.	4g#/	.	4ee\	.	2E\	prin-	.	2e\	prin-	.	.	.	.	4ee\	prin-	.	4e/	.	4ee\	.
8E\	.	.	.	.	.	.	.	.	.	.	.	.	.	.	.	.	.	.	.	.	.	.
8E\	r7n_ 5_	.	4b/	.	4ddn\	.	.	.	.	.	.	.	4b\	prin-	.	4ddn\	.	.	4r	.	4r	.
8E\J	x x	.	.	.	.	.	.	.	.	.	.	.	.	.	.	.	.	.	.	.	.	.
=75	=75	=75	=75	=75	=75	=75	=75	=75	=75	=75	=75	=75	=75	=75	=75	=75	=75	=75	=75	=75	=75	=75
!LO:MO:mod=*null:null	!	!	!	!	!	!	!	!	!	!	!	!	!	!	!	!	!	!	!	!	!	!
*tremolo	*	*	*	*	*	*	*	*	*	*	*	*	*	*	*	*	*	*	*	*	*	*
!	!	!	!	!	!	!	!	!	!	!	!	!	!	!	!	!	!	!	!	!	!LO:LB:g=original	!
8E\L	6 4	.	4.a/	.	4.cc#\	.	4.E\	-ci-	.	4.e\	-ci-	.	4.a\	-ci-	.	4.cc#\	-ci-	.	4e/	.	4ee\	.
8E\	.	.	.	.	.	.	.	.	.	.	.	.	.	.	.	.	.	.	.	.	.	.
8E\	.	.	.	.	.	.	.	.	.	.	.	.	.	.	.	.	.	.	8e/L	.	8ee\L	.
8E\J	.	.	16b/LL	.	16dd#X\LL	.	8E\	-pi-	.	8e\	-pi-	.	8a\	-pi-	.	8cc#\	-pi-	.	8e/J	.	8ee\J	.
.	.	.	16cc#/JJ	.	16ee\JJ	.	.	.	.	.	.	.	.	.	.	.	.	.	.	.	.	.
!	!	!	!	!	!	!	!	!	!	!	!	!	!	!	!	!	!	!	!LO:MO:mod=!null:null	!	!	!
!	!	!	!	!	!	!	!	!	!	!	!	!	!	!	!	!	!	!	!LO:N:vis=8	!	!	!
8E\L	5 3	.	8g#/L	.	4b\	.	2E\	-o	.	2e\	-o	.	2g#\	-o,	.	2b\	-o	.	4e/L	.	4ee\	.
8E\	.	.	8e/	.	.	.	.	.	.	.	.	.	.	.	.	.	.	.	.	.	.	.
!	!	!	!	!	!	!	!	!	!	!	!	!	!	!	!	!	!	!	!LO:MO:mod=!null:null	!	!	!
!	!	!	!	!	!	!	!	!	!	!	!	!	!	!	!	!	!	!	!LO:N:vis=8	!	!	!
8E\	.	.	8g#/	.	4r	.	.	.	.	.	.	.	.	.	.	.	.	.	4e/J	.	4ee\	.
8E\J	.	.	8b/J	.	.	.	.	.	.	.	.	.	.	.	.	.	.	.	.	.	.	.
=76	=76	=76	=76	=76	=76	=76	=76	=76	=76	=76	=76	=76	=76	=76	=76	=76	=76	=76	=76	=76	=76	=76
!	!	!	!	!	!	!	!LO:LB:g=original	!	!	!	!	!	!	!LO:MO:mod=et	!	!	!	!	!	!	!	!
8E\L	.	.	4.g#/	.	4.ee\	.	2E\	et	.	2B\	et	.	2g#\	&	.	4.ee\	et	.	4e/	.	4ee\	.
8E\	.	.	.	.	.	.	.	.	.	.	.	.	.	.	.	.	.	.	.	.	.	.
8E\	.	.	.	.	.	.	.	.	.	.	.	.	.	.	.	.	.	.	8ee\L	.	8gg#\L	.
8E\J	.	.	8a/	.	8ff#\	.	.	.	.	.	.	.	.	.	.	8ff#\	nunc	.	8ee\J	.	8gg#\J	.
8E\L	.	.	4g#/	.	4ee\	.	4E\	nunc	.	4B\	nunc	.	4g#\	nunc	.	4ee\	.	.	4ee\	.	4gg#\	.
8E\	.	.	.	.	.	.	.	.	.	.	.	.	.	.	.	.	.	.	.	.	.	.
!	!	!	!	!	!	!	!	!	!	!	!	!	!	!LO:MO:mod=et	!	!	!LO:MO:mod=et	!	!	!	!	!
8E\	.	.	4b/	.	4ddn\	.	4E\	et	.	4B\	et	.	4b\	&	.	4ddn\	&	.	4r	.	4r	.
8E\J	.	.	.	.	.	.	.	.	.	.	.	.	.	.	.	.	.	.	.	.	.	.
=77	=77	=77	=77	=77	=77	=77	=77	=77	=77	=77	=77	=77	=77	=77	=77	=77	=77	=77	=77	=77	=77	=77
!	!	!	!	!	!	!	!	!LO:MO:mod=sem-	!	!	!LO:MO:mod=sem-	!	!	!LO:MO:mod=sem-	!	!	!LO:MO:mod=sem-	!	!	!	!	!
8A\L	3	.	4.a/	.	4.cc#\	.	2A\	Sem-	.	2c#\	Sem-	.	2a\	Sem-	.	4.cc#\	Sem-	.	4ff#\	.	4aa\	.
8A\	.	.	.	.	.	.	.	.	.	.	.	.	.	.	.	.	.	.	.	.	.	.
8A\	.	.	.	.	.	.	.	.	.	.	.	.	.	.	.	.	.	.	8ff#\L	.	8aa\L	.
!	!	!	!	!	!	!	!	!	!	!	!	!	!	!	!	!	!LO:MO:mod=.	!	!	!	!	!
8A\J	.	.	8b\	.	16dd#X\LL	.	.	.	.	.	.	.	.	.	.	16dd#X\LL	-per	.	8ff#\J	.	8aa\J	.
!	!	!	!	!	!	!	!	!	!	!	!	!	!	!	!	!LO:SIC:s=16ee#JJ	!	!	!	!	!	!
.	.	.	.	.	16ee#X\JJ	.	.	.	.	.	.	.	.	.	.	16ee\JJ	.	.	.	.	.	.
!	!	!	!	!	!	!	!	!	!	!	!	!	!	!	!	!	!LO:MO:null:mod=-per	!	!	!	!	!
8A\L	6	.	4cc#\	.	4ff#\	.	4A\	-per	.	4c#\	-per	.	4a\	-per	.	4ff#\	.	.	4ff#\	.	4aa\	.
8A\	.	.	.	.	.	.	.	.	.	.	.	.	.	.	.	.	.	.	.	.	.	.
*	*	*	*	*	*	*	*	*	*	*	*	*	*	*ij	*	*	*	*	*	*	*	*
!	!	!	!	!	!	!	!	!LO:MO:mod=et	!	!	!	!	!	!LO:MO:mod=et	!	!	!	!	!	!	!	!
8A\	5	.	4cc#\	.	8ff#\L	.	4A\	&	.	4c#\	et	.	4a\	&	.	8ff#\L	et	.	4r	.	4r	.
8A\J	.	.	.	.	8een\J	.	.	.	.	.	.	.	.	.	.	8ee\J	.	.	.	.	.	.
=78	=78	=78	=78	=78	=78	=78	=78	=78	=78	=78	=78	=78	=78	=78	=78	=78	=78	=78	=78	=78	=78	=78
!	!	!	!	!	!	!	!	!	!	!	!	!	!	!	!	!	!	!	!LO:PB:g=original	!	!	!
8B\L	#	.	4f#/	.	4dd#\	.	4B\	nunc	.	4B\	nunc	.	4f#\	nunc	.	4dd#\	nunc	.	4b/	.	4ff#\	.
8B\	x x	.	.	.	.	.	.	.	.	.	.	.	.	.	.	.	.	.	.	.	.	.
!	!	!	!	!	!	!	!	!LO:MO:mod=et	!	!	!	!	!	!LO:MO:mod=et	!	!	!LO:MO:mod=et	!	!	!	!	!
8B\	x x	.	4f#/	.	4dd#\	.	4B\	&	.	4B\	et	.	4f#\	&	.	4dd#\	&	.	8b/L	.	8ff#\L	.
8B\J	x x	.	.	.	.	.	.	.	.	.	.	.	.	.	.	.	.	.	8b/J	.	8ff#\J	.
!	!	!	!	!	!	!	!	!LO:MO:mod=sem-	!	!	!LO:MO:mod=sem-	!	!	!LO:MO:mod=sem-	!	!	!LO:MO:mod=sem-	!	!	!	!	!
8BB/L	x x	.	4b/	.	4dd#\	.	2B\	Sem-	.	2B\	Sem-	.	2f#\	Sem-	.	2dd#\	Sem-	.	4b/	.	4ff#\	.
8BB/	x x	.	.	.	.	.	.	.	.	.	.	.	.	.	.	.	.	.	.	.	.	.
8BB/	x x	.	4a/	.	8ee\L	.	.	.	.	.	.	.	.	.	.	.	.	.	4b/	.	4ff#\	.
8BB/J	x x	.	.	.	8ff#\J	.	.	.	.	.	.	.	.	.	.	.	.	.	.	.	.	.
!LO:MO:mod=*null:null	!	!	!	!	!	!	!	!	!	!	!	!	!	!	!	!	!	!	!	!	!	!
*Xtremolo	*	*	*	*	*	*	*	*	*	*	*	*	*	*	*	*	*	*	*	*	*	*
!	!	!	!LO:LB:g=original	!	!LO:PB:g=original	!	!	!	!	!LO:LB:g=original	!	!	!LO:LB:g=original	!	!	!	!	!	!	!	!	!
=79	=79	=79	=79	=79	=79	=79	=79	=79	=79	=79	=79	=79	=79	=79	=79	=79	=79	=79	=79	=79	=79	=79
*	*	*	*^	*	*	*	*	*	*	*	*	*	*	*	*	*	*	*	*	*	*	*
!	!	!	!LO:MO:mod=*tremolo	!LO:MO:mod=*tremolo	!	!	!	!	!	!	!	!	!	!	!	!	!	!	!	!	!	!	!
*	*	*	*null	*null	*	*	*	*	*	*	*	*	*	*	*	*	*	*	*	*	*	*	*
8E\L	.	.	8b/L	8g#\L	.	4ee\	.	2E\	-per	.	2B\	-per	.	2g#\	-per	.	2ee\	-per	.	4g#/	.	4ee\	.
*	*	*	*	*	*	*	*	*	*	*	*	*	*	*	*Xij	*	*	*	*	*	*	*	*
8E\	.	.	8b/	8g#\	.	.	.	.	.	.	.	.	.	.	.	.	.	.	.	.	.	.	.
8E\	.	.	8b/	8g#\	.	8gg#\L	.	.	.	.	.	.	.	.	.	.	.	.	.	4r	.	4r	.
8E\J	.	.	8b/J	8g#\J	.	16ff#\L	.	.	.	.	.	.	.	.	.	.	.	.	.	.	.	.	.
.	.	.	.	.	.	16gg#\JJ	.	.	.	.	.	.	.	.	.	.	.	.	.	.	.	.	.
!LO:MO:mod=*null:null	!	!	!LO:MO:mod=*null:null	!LO:MO:mod=*null:null	!	!	!	!	!	!	!	!	!	!	!	!	!	!	!	!	!	!	!
*tremolo	*	*	*tremolo	*tremolo	*	*	*	*	*	*	*	*	*	*	*	*	*	*	*	*	*	*	*
!	!	!	!	!	!	!	!	!	!LO:MO:mod=et	!	!	!LO:MO:mod=et	!	!	!LO:MO:mod=et	!	!	!	!	!	!	!	!
8D#\L	6 5	.	8b/L	8f#\L	.	4.bb\	.	4D#\	&	.	4B\	&	.	4a\	&	.	4ff#\	et	.	4b/	.	4ff#\	.
8D#\	.	.	8b/	8f#\	.	.	.	.	.	.	.	.	.	.	.	.	.	.	.	.	.	.	.
8D#\	.	.	8b/	8f#\	.	.	.	4D#\	in	.	4B\	in	.	4a\	in	.	4ff#\	in	.	8b/L	.	8ff#\L	.
8D#\J	.	.	8b/J	8f#\J	.	8aa\	.	.	.	.	.	.	.	.	.	.	.	.	.	8b/J	.	8ff#\J	.
!	!	!	!LO:MO:mod=*null:null	!LO:MO:mod=*null:null	!	!	!	!	!	!	!	!	!	!	!	!	!	!	!	!	!	!	!
*	*	*	*Xtremolo	*Xtremolo	*	*	*	*	*	*	*	*	*	*	*	*	*	*	*	*	*	*	*
=80	=80	=80	=80	=80	=80	=80	=80	=80	=80	=80	=80	=80	=80	=80	=80	=80	=80	=80	=80	=80	=80	=80	=80
!	!	!	!	!	!	!	!	!	!LO:MO:mod=sae-	!	!	!LO:MO:mod=sae-	!	!	!LO:MO:mod=sae-	!	!	!LO:MO:mod=sae-	!	!	!	!	!
8E\L	.	.	8b/L	8g#\L	.	4gg#\	.	2E\	Sae-	.	2B\	Sae-	.	2g#\	Sae-	.	2ee\	Se-	.	4g#/	.	4ee\	.
8E\	.	.	8b/	8g#\	.	.	.	.	.	.	.	.	.	.	.	.	.	.	.	.	.	.	.
8E\	.	.	8b/	8g#\	.	8gg#\L	.	.	.	.	.	.	.	.	.	.	.	.	.	4r	.	4r	.
8E\J	.	.	8b/J	8g#\J	.	16ff#\L	.	.	.	.	.	.	.	.	.	.	.	.	.	.	.	.	.
.	.	.	.	.	.	16gg#\JJ	.	.	.	.	.	.	.	.	.	.	.	.	.	.	.	.	.
!	!	!	!LO:MO:mod=*null:null	!LO:MO:mod=*null:null	!	!	!	!	!	!	!	!	!	!	!	!	!	!	!	!	!	!	!
*	*	*	*tremolo	*tremolo	*	*	*	*	*	*	*	*	*	*	*	*	*	*	*	*	*	*	*
8D#\L	6 5	.	8b/L	8f#\L	.	4.bb\	.	4D#\	-cu-	.	4B\	-cu-	.	4a\	-cu-	.	4ff#\	-cu-	.	4b/	.	4ff#\	.
8D#\	.	.	8b/	8f#\	.	.	.	.	.	.	.	.	.	.	.	.	.	.	.	.	.	.	.
8D#\	.	.	8b/	8f#\	.	.	.	4D#\	-la	.	4B\	-la	.	4a\	-la	.	4ff#\	-la	.	8b/L	.	8ff#\L	.
8D#\J	.	.	8b/J	8f#\J	.	8aa\	.	.	.	.	.	.	.	.	.	.	.	.	.	8b/J	.	8ff#\J	.
!	!	!	!LO:MO:mod=*null:null	!LO:MO:mod=*null:null	!	!	!	!	!	!	!	!	!	!	!	!	!	!	!	!	!	!	!
*	*	*	*Xtremolo	*Xtremolo	*	*	*	*	*	*	*	*	*	*	*	*	*	*	*	*	*	*	*
!LO:LB:g=original	!	!	!	!	!	!	!	!	!	!	!	!	!	!	!	!	!	!	!	!	!	!LO:LB:g=original	!
=81	=81	=81	=81	=81	=81	=81	=81	=81	=81	=81	=81	=81	=81	=81	=81	=81	=81	=81	=81	=81	=81	=81	=81
!	!	!	!LO:MO:mod=*null:null	!LO:MO:mod=*null:null	!	!	!	!	!	!	!	!	!	!	!	!	!	!	!	!	!	!	!
*	*	*	*tremolo	*tremolo	*	*	*	*	*	*	*	*	*	*	*	*	*	*	*	*	*	*	*
!	!	!	!	!	!	!	!	!	!LO:MO:mod=sae-	!	!	!LO:MO:mod=sae-	!	!	!LO:MO:mod=sae-	!	!	!LO:MO:mod=sae-	!	!	!	!	!
8E\L	.	.	8b/L	8g#\L	.	4gg#\	.	2E\	Se-	.	2B\	Se-	.	2g#\	Sae-	.	2ee\	Se-	.	4ee\	.	4gg#\	.
8E\	.	.	8b/	8g#\	.	.	.	.	.	.	.	.	.	.	.	.	.	.	.	.	.	.	.
8E\	.	.	8b/	8g#\	.	8gg#\L	.	.	.	.	.	.	.	.	.	.	.	.	.	4r	.	4r	.
8E\J	.	.	8b/J	8g#\J	.	16ff#\L	.	.	.	.	.	.	.	.	.	.	.	.	.	.	.	.	.
.	.	.	.	.	.	16gg#\JJ	.	.	.	.	.	.	.	.	.	.	.	.	.	.	.	.	.
*	*	*	*	*Xtremolo	*	*	*	*	*	*	*	*	*	*	*	*	*	*	*	*	*	*	*
8G#\L	6	.	8b/L	2ryyyy	.	8bb\L	.	2G#\	-cu-	.	2e\	-cu-	.	2b\	-cu-	.	2ee\	-cu-	.	4ee\	.	4gg#\	.
8G#\	.	.	8b/	.	.	8gg#\	.	.	.	.	.	.	.	.	.	.	.	.	.	.	.	.	.
8G#\	.	.	8b/	.	.	8ee\	.	.	.	.	.	.	.	.	.	.	.	.	.	4ee\	.	4gg#\	.
8G#\J	.	.	8b/J	.	.	8ddn\J	.	.	.	.	.	.	.	.	.	.	.	.	.	.	.	.	.
*	*	*	*v	*v	*	*	*	*	*	*	*	*	*	*	*	*	*	*	*	*	*	*	*
=82	=82	=82	=82	=82	=82	=82	=82	=82	=82	=82	=82	=82	=82	=82	=82	=82	=82	=82	=82	=82	=82	=82
*	*	*	*tremolo	*	*	*	*	*	*	*	*	*	*	*	*	*	*	*	*	*	*	*
8A\L	.	.	8a/L	.	4cc#\	.	4A\	-lo-	.	4c#\	-lo-	.	4a\	-lo-	.	4ff#\	-lo-	.	2ff#\	.	4aa\	.
8A\	.	.	8a/	.	.	.	.	.	.	.	.	.	.	.	.	.	.	.	.	.	.	.
8A\	.	.	8a/	.	8aa\L	.	4A\	-rum	.	4c#\	-rum	.	4a\	-rum	.	4ff#\	-rum	.	.	.	4aa\	.
8A\J	.	.	8a/J	.	8ff#\J	.	.	.	.	.	.	.	.	.	.	.	.	.	.	.	.	.
*Xtremolo	*	*	*Xtremolo	*	*	*	*	*	*	*	*	*	*	*	*	*	*	*	*	*	*	*
!LO:TX:t=P:problem:problem=mixed beam	!	!	!	!	!	!	!	!	!	!	!	!	!	!	!	!	!	!	!	!	!	!
8B\L	6 4	.	8g#/L	.	4ee\	.	4B\	a-	.	2B\	a-	.	4g#\	a-	.	4ee\	a-	.	4ee\	.	4gg#\	.
8B\	.	.	8b/	.	.	.	.	.	.	.	.	.	.	.	.	.	.	.	.	.	.	.
8BB/	5 3	.	8f#/	.	4dd#X\	.	4BB/	.	.	.	.	.	4f#\	.	.	4dd#\	.	.	4b/	.	4ff#\	.
8BB/J	.	.	8a/J	.	.	.	.	.	.	.	.	.	.	.	.	.	.	.	.	.	.	.
=83	=83	=83	=83	=83	=83	=83	=83	=83	=83	=83	=83	=83	=83	=83	=83	=83	=83	=83	=83	=83	=83	=83
4E\	.	.	4g#/	.	4ee\	.	4E\	-men	.	4B\	-men	.	4g#\	-men	.	4ee\	-men	.	4g#/	.	4ee\	.
4r	.	.	4g#/	.	8ee\L	.	4r	.	.	4r	.	.	4r	.	.	4r	.	.	4r	.	4r	.
.	.	.	.	.	8ddn\J	.	.	.	.	.	.	.	.	.	.	.	.	.	.	.	.	.
2r	.	.	2a/	.	8cc#\L	.	2r	.	.	2r	.	.	2r	.	.	2r	.	.	2r	.	2r	.
.	.	.	.	.	8b\	.	.	.	.	.	.	.	.	.	.	.	.	.	.	.	.	.
.	.	.	.	.	8cc#\	.	.	.	.	.	.	.	.	.	.	.	.	.	.	.	.	.
.	.	.	.	.	8dd#X\J	.	.	.	.	.	.	.	.	.	.	.	.	.	.	.	.	.
=84	=84	=84	=84	=84	=84	=84	=84	=84	=84	=84	=84	=84	=84	=84	=84	=84	=84	=84	=84	=84	=84	=84
!	!	!	!	!	!	!	!	!	!	!	!	!	!	!	!	!LO:LB:g=original	!	!	!	!	!	!
!	!	!	!	!	!	!	!	!	!	!	!	!	!LO:LB:g=original	!	!	!	!	!	!	!	!	!
!	!	!	!	!	!LO:LB:g=original	!	!	!	!	!	!	!	!	!	!	!	!	!	!	!	!	!
4r	.	.	4g#/	.	8ee\L	.	4r	.	.	4r	.	.	4r	.	.	4r	.	.	4r	.	4r	.
.	.	.	.	.	8b\	.	.	.	.	.	.	.	.	.	.	.	.	.	.	.	.	.
4E\	.	.	4g#/	.	8gg#\	.	4E\	a-	.	4B\	a-	.	4g#\	a-	.	4ee\	a-	.	4ee\	.	4gg#\	.
.	.	.	.	.	8ee\J	.	.	.	.	.	.	.	.	.	.	.	.	.	.	.	.	.
4A\	6	.	4a/	.	8aa\L	.	4A\	.	.	4c#\	.	.	4a\	.	.	4ff#\	.	.	4ff#\	.	4aa\	.
.	.	.	.	.	8ff#\	.	.	.	.	.	.	.	.	.	.	.	.	.	.	.	.	.
4B\	.	.	4f#/	.	8ee\	.	4B\	.	.	4A\	.	.	4f#\	.	.	4dd#\	.	.	4b/	.	4ff#\	.
.	.	.	.	.	8dd#\J	.	.	.	.	.	.	.	.	.	.	.	.	.	.	.	.	.
=85	=85	=85	=85	=85	=85	=85	=85	=85	=85	=85	=85	=85	=85	=85	=85	=85	=85	=85	=85	=85	=85	=85
!	!	!	!	!	!	!	!	!	!	!LO:LB:g=original	!	!	!	!	!	!	!	!	!	!	!	!
4E\	.	.	4g#/	.	4ee\	.	4E\	-men	.	4B\	-men	.	4g#\	-men	.	4ee\	-men	.	4g#/	.	4ee\	.
4r	.	.	4g#/	.	8ee\L	.	4r	.	.	4r	.	.	4r	.	.	4r	.	.	4r	.	4r	.
.	.	.	.	.	8ddn\J	.	.	.	.	.	.	.	.	.	.	.	.	.	.	.	.	.
2r	.	.	2a/	.	8cc#\L	.	2r	.	.	2r	.	.	2r	.	.	2r	.	.	2r	.	2r	.
.	.	.	.	.	8b\	.	.	.	.	.	.	.	.	.	.	.	.	.	.	.	.	.
.	.	.	.	.	8cc#\	.	.	.	.	.	.	.	.	.	.	.	.	.	.	.	.	.
.	.	.	.	.	8dd#X\J	.	.	.	.	.	.	.	.	.	.	.	.	.	.	.	.	.
=86	=86	=86	=86	=86	=86	=86	=86	=86	=86	=86	=86	=86	=86	=86	=86	=86	=86	=86	=86	=86	=86	=86
4r	.	.	4g#/	.	8ee\L	.	4r	.	.	4r	.	.	4r	.	.	4r	.	.	4r	.	4r	.
.	.	.	.	.	8b\	.	.	.	.	.	.	.	.	.	.	.	.	.	.	.	.	.
!	!	!	!	!	!	!	!	!	!	!	!	!	!	!LO:MO:mod=a-	!	!	!	!	!	!	!	!
4E\	.	.	4g#/	.	8gg#\	.	4E\	a-	.	4B\	a-	.	4g#\	amen	.	4ee\	a-	.	4ee\	.	4gg#\	.
.	.	.	.	.	8ee\J	.	.	.	.	.	.	.	.	.	.	.	.	.	.	.	.	.
4A\	6	.	4a/	.	8ff#\L	.	4A\	.	.	4c#\	.	.	4a\	.	.	4ff#\	.	.	4ff#\	.	4aa\	.
.	.	.	.	.	8aa\	.	.	.	.	.	.	.	.	.	.	.	.	.	.	.	.	.
4B\	.	.	4f#/	.	8ff#\	.	4B\	.	.	4B\	.	.	4f#\	.	.	4dd#\	.	.	4b/	.	4ff#\	.
.	.	.	.	.	8dd#\J	.	.	.	.	.	.	.	.	.	.	.	.	.	.	.	.	.
=87	=87	=87	=87	=87	=87	=87	=87	=87	=87	=87	=87	=87	=87	=87	=87	=87	=87	=87	=87	=87	=87	=87
!	!	!	!	!	!	!	!	!	!	!	!	!	!	!	!	!	!	!	!LO:LB:g=original	!	!	!
!	!	!	!	!	!	!	!LO:LB:g=original	!	!	!	!	!	!	!LO:MO:null:mod=-men	!	!	!	!	!	!	!	!
4E\	.	.	4g#/	.	4ee\	.	4E\	-men	.	4B\	-men	.	4g#\	.	.	4ee\	-men	.	4g#/	.	4ee\	.
4r	.	.	4r	.	4r	.	4r	.	.	4r	.	.	4r	.	.	4r	.	.	4r	.	4r	.
*	*	*	*	*	*	*	*	*ij	*	*	*ij	*	*	*ij	*	*	*	*	*	*	*	*
4BB/	.	.	4dd# 4f# 4B/	.	4b\ 4ff#	.	4B\	a-	.	4B\	a-	.	4f#\	a-	.	4dd#\	a-	.	4b/	.	4ff#\	.
4r	.	.	4r	.	4r	.	4r	.	.	4r	.	.	4r	.	.	4r	.	.	4r	.	4r	.
=88	=88	=88	=88	=88	=88	=88	=88	=88	=88	=88	=88	=88	=88	=88	=88	=88	=88	=88	=88	=88	=88	=88
!	!	!	!	!	!	!	!	!LO:MO:mod=-men.	!	!	!LO:MO:mod=-men.	!	!	!LO:MO:mod=-men.	!	!	!LO:MO:mod=-men.	!	!	!	!	!
4EE/	.	.	4ee 4g# 4B/	.	4e\ 4b 4gg#	.	4E\	-men	.	4B\	-men	.	4g#\	-men	.	4ee\	-men	.	4g#/	.	4ee\	.
*	*	*	*	*	*	*	*	*Xij	*	*	*Xij	*	*	*Xij	*	*	*	*	*	*	*	*
4r	.	.	4r	.	4r	.	4r	.	.	4r	.	.	4r	.	.	4r	.	.	4r	.	4r	.
2r	.	.	2r	.	2r	.	2r	.	.	2r	.	.	2r	.	.	2r	.	.	2r	.	2r	.
==	==	==	==	==	==	==	==	==	==	==	==	==	==	==	==	==	==	==	==	==	==	==
*-	*-	*-	*-	*-	*-	*-	*-	*-	*-	*-	*-	*-	*-	*-	*-	*-	*-	*-	*-	*-	*-	*-
!!!system-decoration: [(g1)][(g2)][(g3)]<s9>
!!LO:MO:mod
!! !!!RDF**kern: @ = marked note, color=grey
!!LO:MO:end
!!!filter-modern: shed -k -e "s/([^a-gA-Gn#X-])[<>]/$1/g" | shed -X dynam -e "s/:a/:A/LX" | shed -e "s/TX(.*):t=P:/tx$1:t=P:/LG" | shed -e "s/^(X?)rep$/$1REP/I" | sic -sq | modori -m | autostem -r | tie -s | humtr -p | shed -e "s/yy//"
!!!ENC: Berenika Jozajtis
!!!END: 2021-11-27
!!!EED: Kamil Watkowski
!!!EEV: 2021-12-14
!!!ENC-modern: Andrzej Kubiczek
!!!END-modern: 2022-07-29
